; generated by Slic3r 1.33.8-prusa3d-win64 on 2017-05-12 at 15:28:52

; external perimeters extrusion width = 0.40mm
; perimeters extrusion width = 0.54mm
; infill extrusion width = 0.54mm
; solid infill extrusion width = 0.54mm
; top infill extrusion width = 0.54mm

M107
M80 ; turn on PSU
M140 S55
M104 S240 ; start E heating
M17; enable motors
G28 X Y ; Z ; Home
M190 S55
M109 S240
G91
G1 E5 F200
G90
G21 ; set units to millimeters
G90 ; use absolute coordinates
M82 ; use absolute distances for extrusion
G92 E0
G1 Z0.200 F5400.000
G1 E-1.50000 F1800.00000
G92 E0
G1 X154.242 Y117.260 F5400.000
G1 E1.50000 F1800.00000
G1 F1200
G1 X155.127 Y116.155 E1.57399
G1 X155.998 Y115.134 E1.64412
G1 X157.011 Y114.018 E1.72284
G1 X157.996 Y113.001 E1.79680
G1 X158.964 Y112.062 E1.86725
G1 X160.129 Y111.003 E1.94951
G1 X161.150 Y110.131 E2.01964
G1 X162.201 Y109.288 E2.09007
G1 X163.466 Y108.338 E2.17269
G1 X164.564 Y107.568 E2.24278
G1 X165.752 Y106.787 E2.31704
G1 X166.960 Y106.047 E2.39102
G1 X168.126 Y105.382 E2.46118
G1 X169.522 Y104.642 E2.54372
G1 X170.733 Y104.050 E2.61416
G1 X172.024 Y103.467 E2.68814
G1 X173.417 Y102.891 E2.76692
G1 X174.672 Y102.418 E2.83701
G1 X176.011 Y101.959 E2.91095
G1 X177.453 Y101.518 E2.98973
G1 X178.747 Y101.165 E3.05981
G1 X180.124 Y100.834 E3.13379
G1 X181.601 Y100.530 E3.21257
G1 X182.923 Y100.300 E3.28266
G1 X184.330 Y100.100 E3.35692
G1 X185.738 Y99.945 E3.43091
G1 X187.076 Y99.838 E3.50105
G1 X188.581 Y99.766 E3.57976
G1 X189.997 Y99.743 E3.65375
G1 X191.345 Y99.764 E3.72417
G1 X192.918 Y99.838 E3.80644
G1 X194.256 Y99.944 E3.87658
G1 X195.601 Y100.092 E3.94730
G1 X197.161 Y100.314 E4.02961
G1 X198.482 Y100.545 E4.09969
G1 X199.875 Y100.834 E4.17398
G1 X201.252 Y101.164 E4.24798
G1 X202.547 Y101.518 E4.31810
G1 X204.057 Y101.982 E4.40064
G1 X205.333 Y102.420 E4.47111
G1 X206.657 Y102.920 E4.54505
G1 X208.049 Y103.499 E4.62383
G1 X209.271 Y104.052 E4.69392
G1 X210.543 Y104.675 E4.76790
G1 X211.874 Y105.382 E4.84665
G1 X213.039 Y106.047 E4.91675
G1 X214.247 Y106.787 E4.99075
G1 X215.435 Y107.567 E5.06502
G1 X216.534 Y108.338 E5.13514
G1 X217.740 Y109.242 E5.21386
G1 X218.845 Y110.127 E5.28785
G1 X219.866 Y110.998 E5.35799
G1 X220.982 Y112.011 E5.43670
G1 X221.999 Y112.996 E5.51066
G1 X222.938 Y113.964 E5.58112
G1 X223.997 Y115.129 E5.66337
G1 X224.869 Y116.150 E5.73350
G1 X225.716 Y117.206 E5.80423
G1 X226.658 Y118.461 E5.88621
G1 X227.432 Y119.564 E5.95665
G1 X228.210 Y120.747 E6.03061
G1 X228.950 Y121.955 E6.10459
G1 X229.587 Y123.071 E6.17176
G1 X230.355 Y124.517 E6.25729
G1 X230.950 Y125.733 E6.32802
G1 X231.531 Y127.018 E6.40171
G1 X232.109 Y128.417 E6.48078
G1 X232.582 Y129.672 E6.55087
G1 X233.039 Y131.006 E6.62453
G1 X233.482 Y132.453 E6.70359
G1 X233.835 Y133.747 E6.77368
G1 X234.166 Y135.124 E6.84766
G1 X234.470 Y136.601 E6.92644
G1 X234.700 Y137.923 E6.99653
G1 X234.900 Y139.330 E7.07078
G1 X235.063 Y140.823 E7.14926
G1 X235.168 Y142.161 E7.21936
G1 X235.234 Y143.575 E7.29333
G1 X235.257 Y144.997 E7.36762
G1 X235.236 Y146.339 E7.43773
G1 X235.167 Y147.844 E7.51646
G1 X235.056 Y149.256 E7.59044
G1 X234.909 Y150.590 E7.66058
G1 X234.698 Y152.088 E7.73960
G1 X234.456 Y153.477 E7.81326
G1 X234.183 Y154.797 E7.88372
G1 X233.814 Y156.335 E7.96632
G1 X233.459 Y157.629 E8.03642
G1 X233.043 Y158.982 E8.11037
G1 X232.582 Y160.327 E8.18467
G1 X232.108 Y161.583 E8.25479
G1 X231.506 Y163.038 E8.33708
G1 X230.951 Y164.266 E8.40749
G1 X230.358 Y165.477 E8.47792
G1 X229.622 Y166.869 E8.56019
G1 X228.953 Y168.039 E8.63061
G1 X228.216 Y169.243 E8.70432
G1 X227.384 Y170.506 E8.78335
G1 X226.612 Y171.603 E8.85345
G1 X225.762 Y172.736 E8.92744
G1 X224.818 Y173.911 E9.00620
G1 X223.946 Y174.931 E9.07629
G1 X222.993 Y175.978 E9.15027
G1 X221.942 Y177.059 E9.22904
G1 X220.978 Y177.992 E9.29913
G1 X219.927 Y178.949 E9.37339
G1 X218.850 Y179.869 E9.44737
G1 X217.803 Y180.709 E9.51750
G1 X216.595 Y181.618 E9.59652
G1 X215.440 Y182.429 E9.67022
G1 X214.315 Y183.170 E9.74062
G1 X212.966 Y183.996 E9.82325
G1 X211.800 Y184.660 E9.89334
G1 X210.549 Y185.322 E9.96731
G1 X209.272 Y185.948 E10.04159
G1 X208.049 Y186.501 E10.11173
G1 X206.595 Y187.104 E10.19398
G1 X205.328 Y187.582 E10.26474
G1 X204.058 Y188.017 E10.33484
G1 X202.553 Y188.480 E10.41714
G1 X201.253 Y188.835 E10.48754
G1 X199.876 Y189.166 E10.56152
G1 X198.399 Y189.470 E10.64030
G1 X197.077 Y189.700 E10.71039
G1 X195.676 Y189.899 E10.78435
G1 X194.177 Y190.063 E10.86312
G1 X192.839 Y190.168 E10.93321
G1 X191.419 Y190.234 E11.00749
G1 X190.003 Y190.257 E11.08148
G1 X188.661 Y190.236 E11.15160
G1 X187.156 Y190.167 E11.23033
G1 X185.744 Y190.056 E11.30431
G1 X184.410 Y189.909 E11.37444
G1 X182.918 Y189.699 E11.45317
G1 X181.523 Y189.456 E11.52713
G1 X180.203 Y189.183 E11.59756
G1 X178.665 Y188.814 E11.68018
G1 X177.371 Y188.459 E11.75027
G1 X176.013 Y188.041 E11.82452
G1 X174.673 Y187.582 E11.89854
G1 X173.417 Y187.109 E11.96864
G1 X171.962 Y186.506 E12.05093
G1 X170.729 Y185.948 E12.12165
G1 X169.523 Y185.358 E12.19178
G1 X168.131 Y184.622 E12.27405
G1 X166.961 Y183.953 E12.34447
G1 X165.753 Y183.213 E12.41847
G1 X164.494 Y182.384 E12.49721
G1 X163.397 Y181.612 E12.56730
G1 X162.264 Y180.762 E12.64130
G1 X161.089 Y179.818 E12.72006
G1 X160.069 Y178.946 E12.79015
G1 X159.018 Y177.989 E12.86443
G1 X158.001 Y177.004 E12.93839
G1 X157.066 Y176.040 E13.00855
G1 X156.047 Y174.923 E13.08755
G1 X155.131 Y173.850 E13.16123
G1 X154.291 Y172.803 E13.23137
G1 X153.385 Y171.599 E13.31009
G1 X152.571 Y170.440 E13.38408
G1 X151.830 Y169.314 E13.45449
G1 X151.004 Y167.966 E13.53711
G1 X150.340 Y166.800 E13.60721
G1 X149.678 Y165.549 E13.68118
G1 X149.052 Y164.272 E13.75545
G1 X148.499 Y163.049 E13.82560
G1 X147.896 Y161.595 E13.90785
G1 X147.420 Y160.333 E13.97831
G1 X146.983 Y159.058 E14.04870
G1 X146.520 Y157.553 E14.13101
G1 X146.165 Y156.253 E14.20141
G1 X145.834 Y154.876 E14.27538
G1 X145.530 Y153.399 E14.35417
G1 X145.300 Y152.077 E14.42425
G1 X145.101 Y150.676 E14.49822
G1 X144.937 Y149.177 E14.57699
G1 X144.832 Y147.839 E14.64708
G1 X144.766 Y146.425 E14.72106
G1 X144.743 Y145.003 E14.79535
G1 X144.764 Y143.661 E14.86546
G1 X144.833 Y142.156 E14.94419
G1 X144.944 Y140.744 E15.01817
G1 X145.091 Y139.410 E15.08831
G1 X145.301 Y137.918 E15.16703
G1 X145.544 Y136.523 E15.24099
G1 X145.817 Y135.203 E15.31143
G1 X146.185 Y133.671 E15.39371
G1 X146.541 Y132.371 E15.46413
G1 X146.937 Y131.083 E15.53454
G1 X147.447 Y129.593 E15.61685
G1 X147.922 Y128.338 E15.68694
G1 X148.464 Y127.029 E15.76095
G1 X149.049 Y125.734 E15.83522
G1 X149.639 Y124.528 E15.90535
G1 X150.378 Y123.131 E15.98792
G1 X151.047 Y121.961 E16.05834
G1 X151.784 Y120.758 E16.13204
G1 X152.612 Y119.499 E16.21076
G1 X153.388 Y118.397 E16.28117
G1 X154.205 Y117.308 E16.35232
G1 X154.738 Y117.646 F5400.000
G1 F1200
G1 X155.611 Y116.556 E16.42529
G1 X156.476 Y115.542 E16.49493
G1 X157.469 Y114.449 E16.57206
G1 X158.440 Y113.446 E16.64502
G1 X159.401 Y112.514 E16.71495
G1 X160.536 Y111.481 E16.79513
G1 X161.554 Y110.612 E16.86504
G1 X162.594 Y109.778 E16.93468
G1 X163.827 Y108.853 E17.01525
G1 X164.917 Y108.088 E17.08479
G1 X166.088 Y107.318 E17.15802
G1 X167.279 Y106.588 E17.23099
G1 X168.437 Y105.927 E17.30064
G1 X169.798 Y105.207 E17.38110
G1 X171.000 Y104.618 E17.45101
G1 X172.273 Y104.044 E17.52399
G1 X173.639 Y103.479 E17.60123
G1 X174.885 Y103.009 E17.67077
G1 X176.205 Y102.557 E17.74370
G1 X177.546 Y102.145 E17.81699
G1 X178.831 Y101.792 E17.88660
G1 X180.266 Y101.446 E17.96372
G1 X181.634 Y101.163 E18.03671
G1 X182.947 Y100.933 E18.10635
G1 X184.408 Y100.723 E18.18346
G1 X185.796 Y100.570 E18.25644
G1 X187.125 Y100.465 E18.32608
G1 X188.600 Y100.394 E18.40321
G1 X189.997 Y100.372 E18.47619
G1 X191.334 Y100.392 E18.54609
G1 X192.868 Y100.464 E18.62628
G1 X194.202 Y100.570 E18.69620
G1 X195.527 Y100.716 E18.76583
G1 X197.053 Y100.933 E18.84639
G1 X198.364 Y101.162 E18.91593
G1 X199.737 Y101.447 E18.98918
G1 X201.095 Y101.773 E19.06216
G1 X202.381 Y102.124 E19.13179
G1 X203.853 Y102.576 E19.21223
G1 X205.119 Y103.011 E19.28218
G1 X206.425 Y103.504 E19.35512
G1 X207.790 Y104.072 E19.43236
G1 X209.003 Y104.620 E19.50190
G1 X210.258 Y105.234 E19.57487
G1 X211.497 Y105.890 E19.64812
G1 X212.655 Y106.550 E19.71775
G1 X213.915 Y107.320 E19.79490
G1 X215.082 Y108.087 E19.86786
G1 X216.173 Y108.853 E19.93748
G1 X217.354 Y109.738 E20.01463
G1 X218.444 Y110.611 E20.08760
G1 X219.458 Y111.476 E20.15724
G1 X220.551 Y112.469 E20.23437
G1 X221.554 Y113.440 E20.30732
G1 X222.486 Y114.401 E20.37726
G1 X223.519 Y115.536 E20.45743
G1 X224.388 Y116.554 E20.52734
G1 X225.222 Y117.594 E20.59698
G1 X226.143 Y118.821 E20.67717
G1 X226.912 Y119.917 E20.74710
G1 X227.679 Y121.084 E20.82005
G1 X228.412 Y122.279 E20.89329
G1 X229.042 Y123.382 E20.95967
G1 X229.793 Y124.798 E21.04340
G1 X230.382 Y126.000 E21.11332
G1 X230.954 Y127.268 E21.18601
G1 X231.521 Y128.639 E21.26353
G1 X231.991 Y129.885 E21.33307
G1 X232.441 Y131.201 E21.40574
G1 X232.876 Y132.619 E21.48325
G1 X233.227 Y133.903 E21.55278
G1 X233.554 Y135.266 E21.62603
G1 X233.851 Y136.709 E21.70300
G1 X234.079 Y138.020 E21.77254
G1 X234.277 Y139.408 E21.84577
G1 X234.430 Y140.796 E21.91875
G1 X234.530 Y142.063 E21.98510
G1 X234.606 Y143.600 E22.06551
G1 X234.628 Y144.997 E22.13849
G1 X234.608 Y146.329 E22.20811
G1 X234.540 Y147.804 E22.28526
G1 X234.431 Y149.196 E22.35822
G1 X234.285 Y150.521 E22.42786
G1 X234.079 Y151.983 E22.50500
G1 X233.839 Y153.359 E22.57795
G1 X233.568 Y154.670 E22.64789
G1 X233.208 Y156.169 E22.72844
G1 X232.856 Y157.453 E22.79799
G1 X232.444 Y158.792 E22.87121
G1 X231.991 Y160.114 E22.94420
G1 X231.521 Y161.361 E23.01382
G1 X230.931 Y162.784 E23.09431
G1 X230.380 Y164.003 E23.16421
G1 X229.794 Y165.201 E23.23384
G1 X229.076 Y166.557 E23.31403
G1 X228.413 Y167.719 E23.38394
G1 X227.683 Y168.910 E23.45693
G1 X226.870 Y170.144 E23.53413
G1 X226.104 Y171.233 E23.60368
G1 X225.265 Y172.350 E23.67666
G1 X224.340 Y173.503 E23.75389
G1 X223.475 Y174.515 E23.82343
G1 X222.531 Y175.552 E23.89667
G1 X221.505 Y176.608 E23.97363
G1 X220.549 Y177.534 E24.04317
G1 X219.512 Y178.477 E24.11640
G1 X218.450 Y179.384 E24.18937
G1 X217.410 Y180.218 E24.25901
G1 X216.230 Y181.106 E24.33614
G1 X215.088 Y181.909 E24.40912
G1 X213.970 Y182.644 E24.47902
G1 X212.655 Y183.450 E24.55960
G1 X211.498 Y184.109 E24.62914
G1 X210.259 Y184.765 E24.70237
G1 X209.005 Y185.379 E24.77534
G1 X207.790 Y185.928 E24.84498
G1 X206.368 Y186.518 E24.92544
G1 X205.115 Y186.991 E24.99537
G1 X203.855 Y187.423 E25.06498
G1 X202.387 Y187.874 E25.14520
G1 X201.097 Y188.227 E25.21509
G1 X199.739 Y188.553 E25.28806
G1 X198.291 Y188.851 E25.36530
G1 X196.980 Y189.079 E25.43484
G1 X195.597 Y189.276 E25.50779
G1 X194.127 Y189.437 E25.58503
G1 X192.801 Y189.540 E25.65457
G1 X191.400 Y189.606 E25.72782
G1 X190.003 Y189.628 E25.80080
G1 X188.671 Y189.608 E25.87042
G1 X187.196 Y189.540 E25.94756
G1 X185.804 Y189.431 E26.02053
G1 X184.479 Y189.285 E26.09016
G1 X183.017 Y189.079 E26.16731
G1 X181.641 Y188.839 E26.24025
G1 X180.331 Y188.568 E26.31018
G1 X178.831 Y188.208 E26.39075
G1 X177.547 Y187.856 E26.46029
G1 X176.208 Y187.444 E26.53351
G1 X174.886 Y186.991 E26.60651
G1 X173.639 Y186.521 E26.67612
G1 X172.216 Y185.931 E26.75660
G1 X170.997 Y185.380 E26.82651
G1 X169.799 Y184.794 E26.89614
G1 X168.443 Y184.076 E26.97634
G1 X167.281 Y183.413 E27.04624
G1 X166.090 Y182.683 E27.11923
G1 X164.856 Y181.870 E27.19644
G1 X163.767 Y181.104 E27.26598
G1 X162.650 Y180.265 E27.33896
G1 X161.497 Y179.340 E27.41619
G1 X160.485 Y178.475 E27.48573
G1 X159.452 Y177.535 E27.55870
G1 X158.392 Y176.505 E27.63594
G1 X157.466 Y175.549 E27.70547
G1 X156.523 Y174.512 E27.77871
G1 X155.616 Y173.450 E27.85167
G1 X154.782 Y172.410 E27.92132
G1 X153.894 Y171.230 E27.99845
G1 X153.091 Y170.088 E28.07143
G1 X152.356 Y168.970 E28.14133
G1 X151.550 Y167.655 E28.22190
G1 X150.891 Y166.498 E28.29144
G1 X150.235 Y165.259 E28.36468
G1 X149.621 Y164.005 E28.43765
G1 X149.072 Y162.790 E28.50729
G1 X148.482 Y161.368 E28.58774
G1 X148.009 Y160.115 E28.65768
G1 X147.577 Y158.855 E28.72728
G1 X147.126 Y157.387 E28.80751
G1 X146.773 Y156.097 E28.87739
G1 X146.447 Y154.739 E28.95036
G1 X146.149 Y153.291 E29.02761
G1 X145.921 Y151.980 E29.09715
G1 X145.724 Y150.597 E29.17010
G1 X145.563 Y149.128 E29.24734
G1 X145.460 Y147.801 E29.31688
G1 X145.394 Y146.400 E29.39012
G1 X145.372 Y145.003 E29.46310
G1 X145.392 Y143.671 E29.53272
G1 X145.460 Y142.196 E29.60986
G1 X145.569 Y140.804 E29.68283
G1 X145.715 Y139.479 E29.75247
G1 X145.921 Y138.017 E29.82961
G1 X146.161 Y136.641 E29.90256
G1 X146.432 Y135.331 E29.97248
G1 X146.791 Y133.838 E30.05268
G1 X147.144 Y132.547 E30.12259
G1 X147.535 Y131.274 E30.19220
G1 X148.035 Y129.815 E30.27277
G1 X148.506 Y128.570 E30.34231
G1 X149.043 Y127.274 E30.41558
G1 X149.618 Y126.001 E30.48854
G1 X150.203 Y124.804 E30.55817
G1 X150.924 Y123.443 E30.63864
G1 X151.587 Y122.281 E30.70855
G1 X152.314 Y121.094 E30.78125
G1 X153.126 Y119.861 E30.85838
G1 X153.896 Y118.767 E30.92828
G1 X154.701 Y117.693 E30.99840
G1 E29.49840 F1800.00000
G92 E0
G1 X186.224 Y162.803 F5400.000
G1 E1.50000 F1800.00000
G1 F1200
G1 X186.905 Y162.371 E1.54215
G1 X187.635 Y162.027 E1.58430
G1 X188.403 Y161.778 E1.62644
G1 X189.195 Y161.627 E1.66859
G1 X189.965 Y161.579 E1.70890
G1 X190.801 Y161.626 E1.75266
G1 X191.597 Y161.778 E1.79501
G1 X192.365 Y162.027 E1.83715
G1 X193.095 Y162.371 E1.87930
G1 X193.776 Y162.803 E1.92145
G1 X194.397 Y163.317 E1.96359
G1 X194.949 Y163.905 E2.00573
G1 X195.424 Y164.558 E2.04788
G1 X195.812 Y165.265 E2.09002
G1 X196.109 Y166.015 E2.13217
G1 X196.310 Y166.796 E2.17432
G1 X196.411 Y167.597 E2.21646
G1 X196.411 Y168.403 E2.25861
G1 X196.310 Y169.204 E2.30075
G1 X196.109 Y169.985 E2.34290
G1 X195.812 Y170.735 E2.38504
G1 X195.424 Y171.442 E2.42719
G1 X194.949 Y172.095 E2.46933
G1 X194.397 Y172.683 E2.51148
G1 X193.776 Y173.197 E2.55362
G1 X193.095 Y173.629 E2.59577
G1 X192.365 Y173.973 E2.63791
G1 X191.597 Y174.222 E2.68006
G1 X190.805 Y174.373 E2.72221
G1 X190.000 Y174.424 E2.76435
G1 X189.195 Y174.373 E2.80649
G1 X188.437 Y174.228 E2.84680
G1 X187.639 Y173.974 E2.89057
G1 X186.905 Y173.629 E2.93292
G1 X186.254 Y173.216 E2.97323
G1 X185.605 Y172.685 E3.01700
G1 X185.051 Y172.095 E3.05934
G1 X184.576 Y171.442 E3.10149
G1 X184.188 Y170.735 E3.14363
G1 X183.891 Y169.985 E3.18578
G1 X183.690 Y169.204 E3.22793
G1 X183.589 Y168.399 E3.27027
G1 X183.593 Y167.562 E3.31404
G1 X183.690 Y166.796 E3.35434
G1 X183.891 Y166.015 E3.39649
G1 X184.188 Y165.265 E3.43864
G1 X184.576 Y164.558 E3.48078
G1 X185.051 Y163.905 E3.52293
G1 X185.603 Y163.317 E3.56507
G1 X186.178 Y162.841 E3.60408
G1 X186.594 Y163.313 F5400.000
G1 F1200
G1 X187.209 Y162.923 E3.64210
G1 X187.867 Y162.613 E3.68011
G1 X188.559 Y162.388 E3.71813
G1 X189.274 Y162.252 E3.75614
G1 X189.967 Y162.208 E3.79242
G1 X190.724 Y162.251 E3.83205
G1 X191.441 Y162.388 E3.87017
G1 X192.133 Y162.613 E3.90819
G1 X192.791 Y162.923 E3.94620
G1 X193.406 Y163.313 E3.98422
G1 X193.966 Y163.776 E4.02223
G1 X194.464 Y164.307 E4.06025
G1 X194.892 Y164.895 E4.09826
G1 X195.243 Y165.533 E4.13628
G1 X195.510 Y166.210 E4.17429
G1 X195.691 Y166.914 E4.21231
G1 X195.783 Y167.636 E4.25032
G1 X195.783 Y168.364 E4.28833
G1 X195.691 Y169.086 E4.32635
G1 X195.510 Y169.790 E4.36437
G1 X195.243 Y170.467 E4.40238
G1 X194.892 Y171.105 E4.44039
G1 X194.464 Y171.693 E4.47841
G1 X193.966 Y172.224 E4.51642
G1 X193.406 Y172.687 E4.55444
G1 X192.791 Y173.077 E4.59245
G1 X192.133 Y173.387 E4.63047
G1 X191.441 Y173.612 E4.66848
G1 X190.726 Y173.748 E4.70650
G1 X190.000 Y173.794 E4.74451
G1 X189.274 Y173.748 E4.78253
G1 X188.592 Y173.618 E4.81880
G1 X187.869 Y173.388 E4.85844
G1 X187.209 Y173.077 E4.89656
G1 X186.622 Y172.705 E4.93284
G1 X186.035 Y172.225 E4.97247
G1 X185.536 Y171.693 E5.01059
G1 X185.108 Y171.105 E5.04861
G1 X184.757 Y170.467 E5.08662
G1 X184.490 Y169.790 E5.12464
G1 X184.309 Y169.086 E5.16265
G1 X184.217 Y168.362 E5.20077
G1 X184.222 Y167.603 E5.24041
G1 X184.309 Y166.914 E5.27668
G1 X184.490 Y166.210 E5.31470
G1 X184.757 Y165.533 E5.35271
G1 X185.108 Y164.895 E5.39073
