; generated by Slic3r 1.33.8-prusa3d-win64 on 2017-05-13 at 13:52:55

; external perimeters extrusion width = 0.40mm
; perimeters extrusion width = 0.67mm
; infill extrusion width = 0.67mm
; solid infill extrusion width = 0.67mm
; top infill extrusion width = 0.67mm

M107
M80 ; turn on PSU
M140 S60
M104 S240 ; start E heating
M17; enable motors
G28 X Y; Z ; Home
M109 S240
M190 S60
G91
G1 E5 F200
G90
G21 ; set units to millimeters
G90 ; use absolute coordinates
M82 ; use absolute distances for extrusion
G92 E0
G1 Z0.200 F5400.000
G1 E-1.50000 F1800.00000
G92 E0
G1 X99.901 Y124.243 F5400.000
G1 E1.50000 F1800.00000
G1 F1200
G1 X100.708 Y123.617 E1.55762
G1 X101.553 Y123.043 E1.61525
G1 X102.432 Y122.523 E1.67288
G1 X103.342 Y122.059 E1.73050
G1 X104.279 Y121.653 E1.78814
G1 X105.240 Y121.307 E1.84574
G1 X106.220 Y121.022 E1.90337
G1 X107.222 Y120.798 E1.96129
G1 X108.083 Y120.662 E2.01045
G1 X108.579 Y120.621 E2.03857
G1 X112.098 Y120.628 E2.23712
G1 X112.526 Y120.673 E2.26140
G1 X113.425 Y120.823 E2.31283
G1 X114.323 Y121.026 E2.36477
G1 X115.303 Y121.312 E2.42238
G1 X116.253 Y121.655 E2.47937
G1 X117.190 Y122.060 E2.53697
G1 X118.095 Y122.522 E2.59429
G1 X118.979 Y123.045 E2.65223
G1 X119.819 Y123.616 E2.70954
G1 X120.630 Y124.245 E2.76748
G1 X121.396 Y124.921 E2.82511
G1 X122.130 Y125.656 E2.88369
G1 X122.793 Y126.409 E2.94035
G1 X123.419 Y127.217 E2.99798
G1 X123.993 Y128.061 E3.05560
G1 X124.521 Y128.955 E3.11419
G1 X124.976 Y129.851 E3.17085
G1 X125.387 Y130.804 E3.22945
G1 X125.732 Y131.765 E3.28705
G1 X126.036 Y132.829 E3.34947
G1 X126.236 Y133.737 E3.40196
G1 X126.395 Y134.752 E3.45993
G1 X126.489 Y135.758 E3.51693
G1 X126.521 Y136.818 E3.57679
G1 X126.135 Y167.923 E5.33198
G1 X126.103 Y168.826 E5.38300
G1 X126.008 Y169.832 E5.43997
G1 X125.851 Y170.824 E5.49666
G1 X125.645 Y171.755 E5.55046
G1 X125.344 Y172.802 E5.61190
G1 X124.991 Y173.784 E5.67082
G1 X124.578 Y174.736 E5.72937
G1 X124.062 Y175.734 E5.79276
G1 X123.582 Y176.538 E5.84558
G1 X122.937 Y177.471 E5.90960
G1 X122.298 Y178.278 E5.96763
G1 X121.731 Y178.917 E6.01589
G1 X121.123 Y179.529 E6.06457
G1 X120.269 Y180.293 E6.12921
G1 X119.459 Y180.924 E6.18716
G1 X118.596 Y181.512 E6.24606
G1 X117.717 Y182.032 E6.30369
G1 X116.802 Y182.499 E6.36163
G1 X115.849 Y182.911 E6.42023
G1 X114.883 Y183.257 E6.47815
G1 X113.819 Y183.561 E6.54057
G1 X112.827 Y183.776 E6.59785
G1 X112.072 Y183.894 E6.64094
G1 X111.644 Y183.934 E6.66522
G1 X108.306 Y183.940 E6.85355
G1 X107.933 Y183.921 E6.87464
G1 X107.562 Y183.876 E6.89573
G1 X106.796 Y183.751 E6.93950
G1 X105.821 Y183.531 E6.99591
G1 X104.873 Y183.256 E7.05160
G1 X104.028 Y182.955 E7.10220
G1 X102.852 Y182.448 E7.17448
G1 X102.049 Y182.036 E7.22542
G1 X101.281 Y181.585 E7.27569
G1 X100.216 Y180.861 E7.34832
G1 X99.505 Y180.305 E7.39924
G1 X98.768 Y179.656 E7.45463
G1 X97.923 Y178.801 E7.52247
G1 X97.340 Y178.135 E7.57242
G1 X96.732 Y177.350 E7.62845
G1 X96.166 Y176.520 E7.68512
G1 X95.716 Y175.765 E7.73475
G1 X95.163 Y174.697 E7.80259
G1 X94.771 Y173.790 E7.85832
G1 X94.465 Y172.948 E7.90889
G1 X94.110 Y171.734 E7.98025
G1 X93.908 Y170.820 E8.03306
G1 X93.749 Y169.811 E8.09071
G1 X93.655 Y168.805 E8.14770
G1 X93.623 Y167.785 E8.20532
G1 X94.008 Y136.686 E9.96020
G1 X94.040 Y135.743 E10.01345
G1 X94.132 Y134.760 E10.06915
G1 X94.327 Y133.567 E10.13732
G1 X94.524 Y132.704 E10.18730
G1 X94.801 Y131.751 E10.24331
G1 X95.212 Y130.631 E10.31059
G1 X95.564 Y129.827 E10.36013
G1 X96.013 Y128.947 E10.41586
G1 X96.625 Y127.925 E10.48305
G1 X97.122 Y127.200 E10.53269
G1 X97.731 Y126.415 E10.58872
G1 X98.519 Y125.530 E10.65561
G1 X99.143 Y124.910 E10.70524
G1 X99.855 Y124.281 E10.75884
G1 X100.297 Y124.731 F5400.000
G1 F1200
G1 X101.077 Y124.126 E10.81454
G1 X101.889 Y123.574 E10.86994
G1 X102.734 Y123.074 E10.92533
G1 X103.608 Y122.628 E10.98073
G1 X104.510 Y122.238 E11.03614
G1 X105.433 Y121.905 E11.09152
G1 X106.376 Y121.631 E11.14692
G1 X107.339 Y121.416 E11.20260
G1 X108.157 Y121.286 E11.24932
G1 X108.607 Y121.248 E11.27480
G1 X112.056 Y121.255 E11.46945
G1 X112.437 Y121.295 E11.49104
G1 X113.294 Y121.437 E11.54009
G1 X114.165 Y121.634 E11.59044
G1 X115.112 Y121.911 E11.64612
G1 X116.021 Y122.239 E11.70063
G1 X116.921 Y122.628 E11.75600
G1 X117.796 Y123.075 E11.81142
G1 X118.641 Y123.574 E11.86681
G1 X119.449 Y124.123 E11.92191
G1 X120.229 Y124.728 E11.97761
G1 X120.965 Y125.378 E12.03300
G1 X121.670 Y126.084 E12.08930
G1 X122.308 Y126.809 E12.14380
G1 X122.910 Y127.585 E12.19920
G1 X123.462 Y128.397 E12.25459
G1 X123.969 Y129.256 E12.31089
G1 X124.407 Y130.117 E12.36539
G1 X124.802 Y131.033 E12.42170
G1 X125.135 Y131.962 E12.47737
G1 X125.430 Y132.998 E12.53817
G1 X125.619 Y133.858 E12.58785
G1 X125.772 Y134.834 E12.64357
G1 X125.862 Y135.796 E12.69808
G1 X125.892 Y136.814 E12.75557
G1 X125.507 Y167.906 E14.51002
G1 X125.476 Y168.785 E14.55967
G1 X125.384 Y169.752 E14.61446
G1 X125.234 Y170.706 E14.66898
G1 X125.039 Y171.587 E14.71989
G1 X124.747 Y172.607 E14.77976
G1 X124.409 Y173.546 E14.83607
G1 X124.012 Y174.461 E14.89234
G1 X123.521 Y175.414 E14.95285
G1 X123.053 Y176.198 E15.00434
G1 X122.438 Y177.089 E15.06544
G1 X121.923 Y177.750 E15.11273
G1 X121.370 Y178.380 E15.16004
G1 X120.679 Y179.085 E15.21573
G1 X119.863 Y179.813 E15.27742
G1 X119.085 Y180.420 E15.33311
G1 X118.255 Y180.984 E15.38971
G1 X117.410 Y181.484 E15.44511
G1 X116.531 Y181.932 E15.50080
G1 X115.615 Y182.328 E15.55711
G1 X114.691 Y182.659 E15.61249
G1 X113.655 Y182.954 E15.67328
G1 X112.706 Y183.160 E15.72806
G1 X111.966 Y183.275 E15.77029
G1 X111.532 Y183.309 E15.79487
G1 X108.231 Y183.310 E15.98113
G1 X107.802 Y183.276 E16.00542
G1 X107.095 Y183.166 E16.04577
G1 X105.882 Y182.897 E16.11590
G1 X105.042 Y182.650 E16.16529
G1 X104.163 Y182.335 E16.21799
G1 X103.113 Y181.876 E16.28265
G1 X102.352 Y181.486 E16.33087
G1 X101.602 Y181.045 E16.37997
G1 X100.593 Y180.358 E16.44885
G1 X99.907 Y179.823 E16.49795
G1 X99.194 Y179.194 E16.55155
G1 X98.392 Y178.383 E16.61594
G1 X97.829 Y177.741 E16.66413
G1 X97.237 Y176.977 E16.71863
G1 X96.694 Y176.179 E16.77314
G1 X96.254 Y175.440 E16.82163
G1 X95.731 Y174.426 E16.88602
G1 X95.353 Y173.554 E16.93963
G1 X95.056 Y172.737 E16.98871
G1 X94.715 Y171.565 E17.05759
G1 X94.526 Y170.705 E17.10728
G1 X94.373 Y169.734 E17.16269
G1 X94.282 Y168.767 E17.21750
G1 X94.251 Y167.786 E17.27289
G1 X94.636 Y136.700 E19.02705
G1 X94.667 Y135.783 E19.07880
G1 X94.755 Y134.843 E19.13209
G1 X94.940 Y133.706 E19.19709
G1 X95.131 Y132.867 E19.24561
G1 X95.399 Y131.945 E19.29979
G1 X95.788 Y130.884 E19.36358
G1 X96.129 Y130.101 E19.41176
G1 X96.563 Y129.250 E19.46568
G1 X97.147 Y128.276 E19.52976
G1 X97.629 Y127.571 E19.57796
G1 X98.214 Y126.816 E19.63186
G1 X98.963 Y125.976 E19.69534
G1 X99.572 Y125.370 E19.74384
G1 X100.251 Y124.769 E19.79496
G1 E18.29496 F1800.00000
G92 E0
G1 X108.072 Y126.702 F5400.000
G1 E1.50000 F1800.00000
G1 F1350
G1 X108.072 Y127.334 E1.53566
G1 X107.859 Y127.378 E1.54791
G1 X107.269 Y127.549 E1.58257
G1 X106.696 Y127.756 E1.61693
G1 X106.137 Y127.998 E1.65129
G1 X105.594 Y128.274 E1.68571
G1 X105.046 Y128.600 E1.72166
G1 X104.567 Y128.926 E1.75436
G1 X104.086 Y129.299 E1.78872
G1 X103.629 Y129.702 E1.82308
G1 X103.198 Y130.133 E1.85744
G1 X102.796 Y130.589 E1.89180
G1 X102.422 Y131.071 E1.92616
G1 X102.097 Y131.550 E1.95886
G1 X101.771 Y132.097 E1.99481
G1 X101.494 Y132.641 E2.02923
G1 X101.252 Y133.200 E2.06359
G1 X101.046 Y133.773 E2.09795
G1 X100.876 Y134.357 E2.13231
G1 X100.743 Y134.952 E2.16667
G1 X100.648 Y135.553 E2.20102
G1 X100.590 Y136.159 E2.23538
G1 X100.570 Y136.792 E2.27110
G1 X100.590 Y137.378 E2.30416
G1 X100.648 Y137.983 E2.33846
G1 X100.743 Y138.584 E2.37282
G1 X100.876 Y139.179 E2.40718
G1 X101.046 Y139.763 E2.44154
G1 X101.252 Y140.336 E2.47590
G1 X101.494 Y140.895 E2.51025
G1 X101.719 Y141.337 E2.53822
G1 X102.078 Y141.959 E2.57876
G1 X102.422 Y142.465 E2.61332
G1 X102.796 Y142.947 E2.64768
G1 X103.198 Y143.403 E2.68204
G1 X103.629 Y143.834 E2.71640
G1 X104.086 Y144.237 E2.75075
G1 X104.567 Y144.610 E2.78511
G1 X105.070 Y144.952 E2.81947
G1 X105.595 Y145.262 E2.85383
G1 X106.137 Y145.539 E2.88819
G1 X106.696 Y145.780 E2.92255
G1 X107.269 Y145.987 E2.95691
G1 X107.859 Y146.158 E2.99157
G1 X108.072 Y146.202 E3.00383
G1 X108.072 Y146.834 E3.03948
G1 X107.701 Y146.751 E3.06090
G1 X107.079 Y146.571 E3.09744
G1 X106.470 Y146.351 E3.13398
G1 X105.876 Y146.094 E3.17051
G1 X105.299 Y145.800 E3.20704
G1 X104.742 Y145.470 E3.24358
G1 X104.206 Y145.107 E3.28011
G1 X103.694 Y144.710 E3.31665
G1 X103.209 Y144.281 E3.35318
G1 X102.751 Y143.824 E3.38972
G1 X102.323 Y143.338 E3.42625
G1 X101.926 Y142.826 E3.46279
G1 X101.562 Y142.291 E3.49932
G1 X101.232 Y141.733 E3.53586
G1 X100.938 Y141.157 E3.57239
G1 X100.681 Y140.562 E3.60892
G1 X100.462 Y139.953 E3.64546
G1 X100.281 Y139.331 E3.68200
G1 X100.140 Y138.699 E3.71853
G1 X100.039 Y138.060 E3.75506
G1 X99.978 Y137.415 E3.79160
G1 X99.957 Y136.768 E3.82813
G1 X99.978 Y136.121 E3.86467
G1 X100.039 Y135.476 E3.90120
G1 X100.140 Y134.837 E3.93774
G1 X100.281 Y134.205 E3.97427
G1 X100.462 Y133.583 E4.01081
G1 X100.681 Y132.974 E4.04735
G1 X100.938 Y132.380 E4.08388
G1 X101.232 Y131.803 E4.12041
G1 X101.562 Y131.245 E4.15695
G1 X101.926 Y130.710 E4.19348
G1 X102.323 Y130.198 E4.23002
G1 X102.751 Y129.712 E4.26655
G1 X103.209 Y129.255 E4.30309
G1 X103.694 Y128.826 E4.33962
G1 X104.206 Y128.430 E4.37616
G1 X104.742 Y128.066 E4.41269
G1 X105.299 Y127.736 E4.44923
G1 X105.876 Y127.442 E4.48576
G1 X106.470 Y127.185 E4.52229
G1 X107.079 Y126.966 E4.55883
G1 X107.701 Y126.785 E4.59537
G1 X108.013 Y126.715 E4.61340
G1 X108.564 Y126.108 F5400.000
G1 F675
G1 X108.564 Y127.735 E4.66557
G1 X107.978 Y127.857 E4.68478
G1 X107.421 Y128.018 E4.70336
G1 X106.877 Y128.214 E4.72190
G1 X106.347 Y128.444 E4.74043
G1 X105.832 Y128.706 E4.75897
G1 X105.311 Y129.016 E4.77841
G1 X104.857 Y129.325 E4.79603
G1 X104.400 Y129.679 E4.81456
G1 X103.966 Y130.061 E4.83309
G1 X103.558 Y130.470 E4.85163
G1 X103.175 Y130.904 E4.87016
G1 X102.821 Y131.360 E4.88869
G1 X102.512 Y131.815 E4.90631
G1 X102.202 Y132.336 E4.92575
G1 X101.940 Y132.851 E4.94429
G1 X101.710 Y133.381 E4.96283
G1 X101.514 Y133.925 E4.98136
G1 X101.353 Y134.480 E4.99989
G1 X101.227 Y135.044 E5.01843
G1 X101.137 Y135.615 E5.03696
G1 X101.082 Y136.190 E5.05549
G1 X101.063 Y136.792 E5.07478
G1 X101.082 Y137.346 E5.09257
G1 X101.137 Y137.921 E5.11109
G1 X101.227 Y138.492 E5.12963
G1 X101.353 Y139.056 E5.14816
G1 X101.514 Y139.611 E5.16669
G1 X101.710 Y140.155 E5.18523
G1 X101.940 Y140.685 E5.20376
G1 X102.152 Y141.102 E5.21874
G1 X102.496 Y141.697 E5.24079
G1 X102.821 Y142.176 E5.25935
G1 X103.175 Y142.632 E5.27789
G1 X103.558 Y143.066 E5.29642
G1 X103.966 Y143.475 E5.31495
G1 X104.400 Y143.857 E5.33349
G1 X104.857 Y144.211 E5.35202
G1 X105.335 Y144.536 E5.37055
G1 X105.832 Y144.830 E5.38909
G1 X106.347 Y145.093 E5.40762
G1 X106.877 Y145.322 E5.42615
G1 X107.421 Y145.518 E5.44469
G1 X107.978 Y145.680 E5.46327
G1 X108.564 Y145.801 E5.48248
G1 X108.564 Y147.428 E5.53465
G1 X108.241 Y147.377 E5.54516
G1 X107.578 Y147.229 E5.56691
G1 X106.927 Y147.039 E5.58867
G1 X106.289 Y146.809 E5.61042
G1 X105.666 Y146.540 E5.63218
G1 X105.061 Y146.232 E5.65394
G1 X104.477 Y145.887 E5.67569
G1 X103.916 Y145.505 E5.69745
G1 X103.380 Y145.090 E5.71920
G1 X102.871 Y144.641 E5.74096
G1 X102.391 Y144.161 E5.76272
G1 X101.943 Y143.652 E5.78447
G1 X101.527 Y143.116 E5.80623
G1 X101.146 Y142.555 E5.82799
G1 X100.800 Y141.971 E5.84974
G1 X100.492 Y141.366 E5.87150
G1 X100.223 Y140.744 E5.89325
G1 X99.993 Y140.105 E5.91501
G1 X99.804 Y139.454 E5.93677
G1 X99.656 Y138.792 E5.95852
G1 X99.549 Y138.122 E5.98028
G1 X99.486 Y137.446 E6.00203
G1 X99.464 Y136.768 E6.02379
G1 X99.486 Y136.090 E6.04555
G1 X99.549 Y135.414 E6.06730
G1 X99.656 Y134.744 E6.08906
G1 X99.804 Y134.082 E6.11081
G1 X99.993 Y133.431 E6.13257
G1 X100.223 Y132.792 E6.15433
G1 X100.492 Y132.170 E6.17608
G1 X100.800 Y131.565 E6.19784
G1 X101.146 Y130.981 E6.21959
G1 X101.527 Y130.420 E6.24135
G1 X101.943 Y129.884 E6.26311
G1 X102.391 Y129.375 E6.28486
G1 X102.871 Y128.895 E6.30662
G1 X103.380 Y128.447 E6.32838
G1 X103.916 Y128.031 E6.35013
G1 X104.477 Y127.649 E6.37189
G1 X105.061 Y127.304 E6.39364
G1 X105.666 Y126.996 E6.41540
G1 X106.289 Y126.727 E6.43716
G1 X106.927 Y126.497 E6.45891
G1 X107.578 Y126.307 E6.48067
G1 X108.505 Y126.118 E6.51100
G1 X108.392 Y126.469 F5400.000
G1 E5.01100 F1800.00000
G92 E0
G1 X112.105 Y123.903 F5400.000
G1 X112.457 Y126.702 F5400.000
G1 E1.50000 F1800.00000
G1 F1350
G1 X112.827 Y126.785 E1.52142
G1 X113.449 Y126.966 E1.55796
G1 X114.059 Y127.185 E1.59449
G1 X114.653 Y127.442 E1.63103
G1 X115.230 Y127.736 E1.66756
G1 X115.787 Y128.066 E1.70410
G1 X116.323 Y128.430 E1.74063
G1 X116.834 Y128.826 E1.77717
G1 X117.320 Y129.255 E1.81370
G1 X117.778 Y129.712 E1.85024
G1 X118.206 Y130.198 E1.88677
G1 X118.603 Y130.710 E1.92331
G1 X118.967 Y131.245 E1.95984
G1 X119.296 Y131.803 E1.99638
G1 X119.590 Y132.380 E2.03291
G1 X119.847 Y132.974 E2.06944
G1 X120.067 Y133.583 E2.10598
G1 X120.247 Y134.205 E2.14252
G1 X120.389 Y134.837 E2.17905
G1 X120.490 Y135.476 E2.21558
G1 X120.551 Y136.121 E2.25212
G1 X120.571 Y136.768 E2.28865
G1 X120.551 Y137.415 E2.32519
G1 X120.490 Y138.060 E2.36172
G1 X120.394 Y138.666 E2.39637
G1 X120.247 Y139.332 E2.43485
G1 X120.067 Y139.953 E2.47132
G1 X119.847 Y140.562 E2.50786
G1 X119.590 Y141.157 E2.54439
G1 X119.296 Y141.733 E2.58093
G1 X118.967 Y142.291 E2.61746
G1 X118.622 Y142.799 E2.65211
G1 X118.205 Y143.339 E2.69059
G1 X117.778 Y143.824 E2.72706
G1 X117.344 Y144.258 E2.76171
G1 X116.833 Y144.710 E2.80019
G1 X116.323 Y145.107 E2.83666
G1 X115.787 Y145.470 E2.87320
G1 X115.230 Y145.800 E2.90973
G1 X114.653 Y146.094 E2.94627
G1 X114.059 Y146.351 E2.98280
G1 X113.449 Y146.571 E3.01934
G1 X112.827 Y146.751 E3.05587
G1 X112.457 Y146.834 E3.07730
G1 X112.457 Y146.202 E3.11295
G1 X112.670 Y146.158 E3.12520
G1 X113.260 Y145.987 E3.15987
G1 X113.832 Y145.780 E3.19423
G1 X114.391 Y145.539 E3.22859
G1 X114.934 Y145.262 E3.26295
G1 X115.458 Y144.952 E3.29731
G1 X115.962 Y144.610 E3.33166
G1 X116.443 Y144.237 E3.36602
G1 X116.900 Y143.834 E3.40038
G1 X117.330 Y143.403 E3.43474
G1 X117.733 Y142.947 E3.46910
G1 X118.106 Y142.465 E3.50346
G1 X118.448 Y141.962 E3.53782
G1 X118.758 Y141.438 E3.57218
G1 X119.035 Y140.895 E3.60653
G1 X119.277 Y140.336 E3.64089
G1 X119.483 Y139.763 E3.67525
G1 X119.653 Y139.179 E3.70961
G1 X119.786 Y138.584 E3.74397
G1 X119.876 Y138.012 E3.77667
G1 X119.938 Y137.378 E3.81262
G1 X119.957 Y136.768 E3.84704
G1 X119.938 Y136.159 E3.88140
G1 X119.881 Y135.553 E3.91576
G1 X119.786 Y134.952 E3.95012
G1 X119.653 Y134.357 E3.98448
G1 X119.483 Y133.773 E4.01883
G1 X119.277 Y133.200 E4.05319
G1 X119.035 Y132.641 E4.08755
G1 X118.810 Y132.199 E4.11552
G1 X118.450 Y131.577 E4.15606
G1 X118.106 Y131.071 E4.19062
G1 X117.733 Y130.589 E4.22498
G1 X117.330 Y130.133 E4.25933
G1 X116.900 Y129.702 E4.29369
G1 X116.443 Y129.299 E4.32805
G1 X115.962 Y128.926 E4.36241
G1 X115.458 Y128.584 E4.39677
G1 X114.934 Y128.274 E4.43113
G1 X114.391 Y127.998 E4.46549
G1 X113.832 Y127.756 E4.49985
G1 X113.260 Y127.549 E4.53420
G1 X112.670 Y127.378 E4.56887
G1 X112.457 Y127.334 E4.58112
G1 X112.457 Y126.762 E4.61339
G1 X111.964 Y126.108 F5400.000
G1 F675
G1 X112.288 Y126.159 E4.62390
G1 X112.950 Y126.307 E4.64566
G1 X113.602 Y126.497 E4.66741
G1 X114.240 Y126.727 E4.68917
G1 X114.863 Y126.996 E4.71093
G1 X115.467 Y127.304 E4.73268
G1 X116.051 Y127.649 E4.75444
G1 X116.612 Y128.031 E4.77619
G1 X117.148 Y128.447 E4.79795
G1 X117.657 Y128.895 E4.81971
G1 X118.137 Y129.375 E4.84146
G1 X118.586 Y129.884 E4.86322
G1 X119.002 Y130.420 E4.88498
G1 X119.383 Y130.981 E4.90673
G1 X119.728 Y131.565 E4.92849
G1 X120.036 Y132.170 E4.95024
G1 X120.306 Y132.792 E4.97200
G1 X120.536 Y133.431 E4.99376
G1 X120.725 Y134.082 E5.01551
G1 X120.873 Y134.744 E5.03727
G1 X120.979 Y135.414 E5.05902
G1 X121.043 Y136.090 E5.08078
G1 X121.064 Y136.768 E5.10254
G1 X121.043 Y137.446 E5.12429
G1 X120.979 Y138.122 E5.14605
G1 X120.878 Y138.758 E5.16671
