; generated by Slic3r 1.33.8-prusa3d-win64 on 2017-05-13 at 14:03:48

; external perimeters extrusion width = 0.40mm
; perimeters extrusion width = 0.67mm
; infill extrusion width = 0.67mm
; solid infill extrusion width = 0.67mm
; top infill extrusion width = 0.67mm

M107
M80 ; turn on PSU
M140 S60
M104 S240 ; start E heating
M17; enable motors
G28 X Y; Z ; Home
M109 S240
M190 S60
G91
G1 E5 F200
G90
G21 ; set units to millimeters
G90 ; use absolute coordinates
M82 ; use absolute distances for extrusion
G92 E0
G1 Z0.200 F5400.000
G1 E-1.50000 F1800.00000
G92 E0
G1 X69.933 Y97.686 F5400.000
G1 E1.50000 F1800.00000
G1 F1200
G1 X70.603 Y97.242 E1.54534
G1 X71.357 Y96.815 E1.59427
G1 X72.075 Y96.469 E1.63922
G1 X72.641 Y96.234 E1.67380
G1 X73.216 Y96.031 E1.70824
G1 X74.065 Y95.785 E1.75811
G1 X74.828 Y95.620 E1.80218
G1 X75.617 Y95.502 E1.84718
G1 X76.408 Y95.436 E1.89196
G1 X77.195 Y95.421 E1.93636
G1 X78.066 Y95.465 E1.98557
G1 X78.858 Y95.558 E2.03054
G1 X79.456 Y95.662 E2.06480
G1 X80.061 Y95.801 E2.09984
G1 X80.905 Y96.048 E2.14944
G1 X81.648 Y96.322 E2.19416
G1 X82.377 Y96.646 E2.23916
G1 X83.114 Y97.035 E2.28616
G1 X83.727 Y97.409 E2.32669
G1 X84.367 Y97.856 E2.37077
G1 X84.962 Y98.330 E2.41364
G1 X85.573 Y98.885 E2.46024
G1 X102.102 Y115.414 E3.77920
G1 X102.751 Y116.142 E3.83422
G1 X103.149 Y116.650 E3.87063
G1 X103.566 Y117.250 E3.91188
G1 X103.958 Y117.893 E3.95435
G1 X104.263 Y118.468 E3.99108
G1 X127.789 Y163.858 E6.87576
G1 X128.156 Y164.666 E6.92585
G1 X128.456 Y165.478 E6.97468
G1 X128.693 Y166.294 E7.02261
G1 X128.831 Y166.896 E7.05750
G1 X128.942 Y167.536 E7.09415
G1 X129.039 Y168.421 E7.14437
G1 X129.070 Y169.331 E7.19572
G1 X129.055 Y169.953 E7.23088
G1 X129.004 Y170.585 E7.26664
G1 X128.878 Y171.483 E7.31780
G1 X128.684 Y172.367 E7.36888
G1 X128.511 Y172.977 E7.40464
G1 X128.310 Y173.561 E7.43950
G1 X127.962 Y174.409 E7.49118
G1 X127.557 Y175.214 E7.54206
G1 X127.233 Y175.770 E7.57839
G1 X126.890 Y176.291 E7.61357
G1 X126.366 Y176.995 E7.66307
G1 X125.818 Y177.630 E7.71037
G1 X125.187 Y178.263 E7.76083
G1 X124.726 Y178.675 E7.79571
G1 X124.236 Y179.066 E7.83108
G1 X123.510 Y179.580 E7.88128
G1 X122.843 Y179.985 E7.92534
G1 X122.181 Y180.333 E7.96752
G1 X121.478 Y180.648 E8.01097
G1 X120.860 Y180.882 E8.04828
G1 X119.834 Y181.191 E8.10871
G1 X119.177 Y181.340 E8.14673
G1 X118.350 Y181.472 E8.19399
G1 X117.686 Y181.539 E8.23164
G1 X116.921 Y181.569 E8.27483
G1 X116.168 Y181.553 E8.31734
G1 X115.413 Y181.489 E8.36010
G1 X114.651 Y181.377 E8.40355
G1 X113.920 Y181.223 E8.44572
G1 X113.182 Y181.019 E8.48889
G1 X112.561 Y180.807 E8.52591
G1 X111.622 Y180.414 E8.58338
G1 X111.034 Y180.121 E8.62043
G1 X110.493 Y179.812 E8.65558
G1 X100.363 Y173.785 E9.32067
G1 X99.768 Y173.408 E9.36041
G1 X98.984 Y172.831 E9.41534
G1 X98.489 Y172.417 E9.45174
G1 X97.945 Y171.904 E9.49393
G1 X97.441 Y171.368 E9.53544
G1 X97.024 Y170.869 E9.57219
G1 X96.432 Y170.060 E9.62872
G1 X96.079 Y169.500 E9.66607
G1 X89.742 Y158.827 E10.36642
G1 X66.192 Y113.393 E13.25393
G1 X65.875 Y112.748 E13.29450
G1 X65.563 Y111.995 E13.34048
G1 X65.292 Y111.190 E13.38839
G1 X65.129 Y110.596 E13.42315
G1 X64.992 Y109.959 E13.45995
G1 X64.857 Y109.074 E13.51043
G1 X64.788 Y108.171 E13.56153
G1 X64.777 Y107.550 E13.59663
G1 X64.801 Y106.916 E13.63240
G1 X64.889 Y106.019 E13.68326
G1 X65.047 Y105.122 E13.73464
G1 X65.194 Y104.505 E13.77040
G1 X65.368 Y103.919 E13.80490
G1 X65.681 Y103.056 E13.85672
G1 X66.051 Y102.237 E13.90744
G1 X66.352 Y101.666 E13.94387
G1 X66.672 Y101.131 E13.97902
G1 X67.166 Y100.406 E14.02851
G1 X67.686 Y99.749 E14.07583
G1 X68.285 Y99.094 E14.12590
G1 X68.736 Y98.655 E14.16141
G1 X69.206 Y98.246 E14.19655
G1 X69.884 Y97.721 E14.24493
G1 X70.296 Y98.199 F5400.000
G1 F1200
G1 X70.926 Y97.781 E14.28763
G1 X71.646 Y97.373 E14.33429
G1 X72.322 Y97.047 E14.37662
G1 X72.865 Y96.821 E14.40982
G1 X73.423 Y96.624 E14.44319
G1 X74.222 Y96.393 E14.49014
G1 X74.946 Y96.237 E14.53193
G1 X75.694 Y96.126 E14.57462
G1 X76.444 Y96.063 E14.61709
G1 X77.185 Y96.049 E14.65890
G1 X78.010 Y96.090 E14.70552
G1 X78.609 Y96.156 E14.73949
G1 X79.189 Y96.251 E14.77268
G1 X79.927 Y96.415 E14.81531
G1 X80.716 Y96.647 E14.86170
G1 X81.421 Y96.908 E14.90411
G1 X82.111 Y97.216 E14.94679
G1 X82.828 Y97.596 E14.99254
G1 X83.387 Y97.938 E15.02952
G1 X83.994 Y98.362 E15.07134
G1 X84.554 Y98.808 E15.11171
G1 X85.134 Y99.334 E15.15589
G1 X101.652 Y115.853 E16.47397
G1 X102.261 Y116.536 E16.52563
G1 X102.643 Y117.022 E16.56054
G1 X103.039 Y117.592 E16.59970
G1 X103.413 Y118.207 E16.64031
G1 X103.705 Y118.759 E16.67553
G1 X127.229 Y164.141 E19.55978
G1 X127.575 Y164.903 E19.60699
G1 X127.849 Y165.642 E19.65146
G1 X128.079 Y166.430 E19.69779
G1 X128.215 Y167.019 E19.73188
G1 X128.319 Y167.622 E19.76643
G1 X128.412 Y168.466 E19.81430
G1 X128.442 Y169.316 E19.86233
G1 X128.428 Y169.920 E19.89637
G1 X128.379 Y170.526 E19.93069
G1 X128.260 Y171.371 E19.97884
G1 X128.077 Y172.203 E20.02692
G1 X127.912 Y172.788 E20.06123
G1 X127.719 Y173.349 E20.09469
G1 X127.391 Y174.147 E20.14334
G1 X127.010 Y174.905 E20.19123
G1 X126.699 Y175.439 E20.22607
G1 X126.367 Y175.943 E20.26014
G1 X125.873 Y176.605 E20.30674
G1 X125.358 Y177.202 E20.35127
G1 X124.764 Y177.799 E20.39877
G1 X124.321 Y178.194 E20.43225
G1 X123.847 Y178.573 E20.46650
G1 X123.163 Y179.056 E20.51375
G1 X122.530 Y179.440 E20.55555
G1 X121.902 Y179.770 E20.59557
G1 X121.235 Y180.069 E20.63680
G1 X120.642 Y180.293 E20.67256
G1 X119.683 Y180.581 E20.72903
G1 X119.063 Y180.722 E20.76494
G1 X118.274 Y180.849 E20.81004
G1 X117.643 Y180.912 E20.84582
G1 X116.917 Y180.941 E20.88680
G1 X116.202 Y180.925 E20.92714
G1 X115.480 Y180.865 E20.96802
G1 X114.763 Y180.759 E21.00893
G1 X114.064 Y180.611 E21.04926
G1 X113.359 Y180.416 E21.09051
G1 X112.754 Y180.208 E21.12660
G1 X111.890 Y179.846 E21.17948
G1 X111.327 Y179.565 E21.21501
G1 X110.808 Y179.268 E21.24874
G1 X100.685 Y173.245 E21.91336
G1 X100.125 Y172.890 E21.95079
G1 X99.386 Y172.348 E22.00248
G1 X98.911 Y171.951 E22.03739
G1 X98.395 Y171.465 E22.07743
G1 X97.912 Y170.953 E22.11713
G1 X97.512 Y170.473 E22.15237
G1 X96.959 Y169.716 E22.20527
G1 X96.617 Y169.175 E22.24139
G1 X90.297 Y158.532 E22.93981
G1 X66.752 Y113.110 E25.82660
G1 X66.452 Y112.499 E25.86500
G1 X66.163 Y111.805 E25.90740
G1 X65.900 Y111.028 E25.95370
G1 X65.740 Y110.448 E25.98768
G1 X65.613 Y109.863 E26.02145
G1 X65.485 Y109.036 E26.06867
G1 X65.419 Y108.250 E26.11318
G1 X65.409 Y107.424 E26.15975
G1 X65.436 Y106.822 E26.19378
G1 X65.499 Y106.205 E26.22876
G1 X65.636 Y105.370 E26.27653
G1 X65.840 Y104.531 E26.32522
G1 X66.013 Y103.965 E26.35865
G1 X66.224 Y103.393 E26.39303
G1 X66.565 Y102.613 E26.44108
G1 X66.963 Y101.864 E26.48890
G1 X67.280 Y101.345 E26.52323
G1 X67.622 Y100.849 E26.55724
G1 X68.147 Y100.176 E26.60538
G1 X68.713 Y99.554 E26.65282
G1 X69.157 Y99.122 E26.68779
G1 X69.608 Y98.729 E26.72151
G1 X70.247 Y98.234 E26.76715
G1 E25.26715 F1800.00000
G92 E0
G1 X88.995 Y119.984 F5400.000
G1 E1.50000 F1800.00000
G1 F1215
G1 X89.517 Y119.484 E1.54079
G1 X89.821 Y119.242 E1.56274
G1 X90.419 Y118.855 E1.60291
G1 X90.763 Y118.674 E1.62485
G1 X91.423 Y118.405 E1.66504
G1 X91.795 Y118.293 E1.68698
G1 X92.503 Y118.150 E1.72776
G1 X93.211 Y118.098 E1.76781
G1 X93.613 Y118.105 E1.79046
G1 X94.322 Y118.187 E1.83073
G1 X94.714 Y118.272 E1.85339
G1 X95.381 Y118.481 E1.89281
G1 X95.739 Y118.632 E1.91474
G1 X96.367 Y118.968 E1.95492
G1 X96.690 Y119.183 E1.97686
G1 X97.244 Y119.631 E2.01704
G1 X97.522 Y119.903 E2.03899
G1 X97.988 Y120.456 E2.07978
G1 X98.388 Y121.071 E2.12119
G1 X98.703 Y121.723 E2.16203
G1 X98.842 Y122.099 E2.18469
G1 X99.023 Y122.775 E2.22412
G1 X99.087 Y123.158 E2.24605
G1 X99.140 Y123.868 E2.28623
G1 X99.131 Y124.257 E2.30817
G1 X99.048 Y124.975 E2.34895
G1 X98.880 Y125.664 E2.38899
G1 X98.748 Y126.044 E2.41165
G1 X98.452 Y126.692 E2.45188
G1 X98.257 Y127.028 E2.47382
G1 X97.838 Y127.618 E2.51460
G1 X97.358 Y128.140 E2.55465
G1 X97.061 Y128.410 E2.57730
G1 X96.488 Y128.835 E2.61752
G1 X96.156 Y129.036 E2.63947
G1 X95.515 Y129.346 E2.67964
G1 X95.150 Y129.482 E2.70159
G1 X94.462 Y129.666 E2.74177
G1 X94.079 Y129.731 E2.76371
G1 X93.369 Y129.783 E2.80389
G1 X92.980 Y129.775 E2.82583
G1 X92.262 Y129.692 E2.86661
G1 X91.560 Y129.519 E2.90741
G1 X91.192 Y129.391 E2.92936
G1 X90.535 Y129.090 E2.97015
G1 X89.911 Y128.704 E3.01156
G1 X89.349 Y128.249 E3.05235
G1 X89.079 Y127.984 E3.07373
G1 X88.818 Y127.693 E3.09576
G1 X88.395 Y127.123 E3.13581
G1 X88.040 Y126.493 E3.17660
G1 X87.755 Y125.793 E3.21923
G1 X87.568 Y125.095 E3.26002
G1 X87.470 Y124.379 E3.30082
G1 X87.453 Y123.991 E3.32274
G1 X87.490 Y123.293 E3.36218
G1 X87.546 Y122.906 E3.38421
G1 X87.624 Y122.536 E3.40559
G1 X87.837 Y121.856 E3.44577
G1 X87.988 Y121.498 E3.46771
G1 X88.325 Y120.870 E3.50789
G1 X88.540 Y120.546 E3.52983
G1 X88.957 Y120.031 E3.56724
G1 X89.358 Y120.318 F5400.000
G1 F1215
G1 X89.841 Y119.856 E3.58868
G1 X90.109 Y119.643 E3.59966
G1 X90.667 Y119.280 E3.62100
G1 X90.971 Y119.122 E3.63198
G1 X91.587 Y118.870 E3.65333
G1 X91.915 Y118.771 E3.66431
G1 X92.570 Y118.639 E3.68575
G1 X93.225 Y118.591 E3.70679
G1 X93.580 Y118.597 E3.71817
G1 X94.241 Y118.674 E3.73953
G1 X94.588 Y118.748 E3.75091
G1 X95.211 Y118.944 E3.77184
G1 X95.527 Y119.077 E3.78282
G1 X96.113 Y119.391 E3.80416
G1 X96.398 Y119.581 E3.81514
G1 X96.916 Y120.000 E3.83649
G1 X97.160 Y120.239 E3.84747
G1 X97.592 Y120.750 E3.86891
G1 X97.958 Y121.313 E3.89046
G1 X98.249 Y121.916 E3.91191
G1 X98.372 Y122.249 E3.92329
G1 X98.541 Y122.880 E3.94423
G1 X98.598 Y123.217 E3.95521
G1 X98.647 Y123.881 E3.97655
G1 X98.639 Y124.223 E3.98753
G1 X98.562 Y124.887 E4.00897
G1 X98.406 Y125.525 E4.03001
G1 X98.290 Y125.860 E4.04139
G1 X98.013 Y126.466 E4.06274
G1 X97.842 Y126.762 E4.07372
G1 X97.455 Y127.307 E4.09516
G1 X97.011 Y127.790 E4.11620
G1 X96.748 Y128.028 E4.12758
G1 X96.213 Y128.425 E4.14893
G1 X95.920 Y128.603 E4.15991
G1 X95.321 Y128.892 E4.18125
G1 X95.000 Y129.012 E4.19224
G1 X94.357 Y129.184 E4.21358
G1 X94.020 Y129.241 E4.22456
G1 X93.356 Y129.290 E4.24590
G1 X93.013 Y129.283 E4.25688
G1 X92.349 Y129.206 E4.27832
G1 X91.700 Y129.046 E4.29977
G1 X91.376 Y128.934 E4.31075
G1 X90.768 Y128.655 E4.33219
G1 X90.197 Y128.301 E4.35374
G1 X89.678 Y127.880 E4.37518
G1 X89.200 Y127.381 E4.39734
G1 X88.809 Y126.854 E4.41838
G1 X88.481 Y126.271 E4.43982
G1 X88.225 Y125.644 E4.46157
G1 X88.052 Y124.998 E4.48301
G1 X87.961 Y124.335 E4.50446
G1 X87.947 Y123.993 E4.51543
G1 X87.980 Y123.341 E4.53637
G1 X88.031 Y122.993 E4.54765
G1 X88.102 Y122.661 E4.55853
G1 X88.301 Y122.026 E4.57988
G1 X88.433 Y121.710 E4.59086
G1 X88.748 Y121.123 E4.61220
G1 X88.937 Y120.838 E4.62318
G1 X89.320 Y120.365 E4.64270
G1 X89.243 Y119.936 F5400.000
G1 E3.14270 F1800.00000
G92 E0
G1 X88.769 Y119.777 F5400.000
G1 X88.769 Y119.777 F5400.000
G1 X84.943 Y116.030 F5400.000
G1 X85.216 Y115.757 F5400.000
G1 X85.216 Y115.757 F5400.000
G1 X85.454 Y115.519 F5400.000
G1 X85.454 Y115.519 F5400.000
G1 X85.609 Y115.364 F5400.000
G1 X85.840 Y115.370 F5400.000
G1 X86.272 Y115.388 F5400.000
G1 X86.788 Y115.418 F5400.000
G1 X87.157 Y115.445 F5400.000
G1 X87.658 Y115.489 F5400.000
G1 X87.973 Y115.522 F5400.000
G1 X88.460 Y115.581 F5400.000
G1 X88.728 Y115.618 F5400.000
G1 X89.202 Y115.690 F5400.000
G1 X89.429 Y115.729 F5400.000
G1 X89.890 Y115.814 F5400.000
G1 X90.083 Y115.853 F5400.000
G1 X90.532 Y115.951 F5400.000
G1 X90.694 Y115.989 F5400.000
G1 X91.131 Y116.099 F5400.000
G1 X91.267 Y116.135 F5400.000
G1 X91.693 Y116.256 F5400.000
G1 X91.807 Y116.291 F5400.000
G1 X92.221 Y116.423 F5400.000
G1 X92.316 Y116.455 F5400.000
G1 X92.719 Y116.598 F5400.000
G1 X92.797 Y116.627 F5400.000
G1 X93.145 Y116.762 F5400.000
G1 X93.145 Y116.762 F5400.000
G1 X93.190 Y116.780 F5400.000
G1 X93.253 Y116.806 F5400.000
G1 X93.636 Y116.969 F5400.000
G1 X93.686 Y116.991 F5400.000
G1 X94.060 Y117.165 F5400.000
G1 X94.099 Y117.184 F5400.000
G1 X94.463 Y117.367 F5400.000
G1 X94.493 Y117.382 F5400.000
G1 X94.847 Y117.575 F5400.000
G1 X94.610 Y117.606 F5400.000
G1 E1.50000 F1800.00000
G1 F1350
G1 X94.424 Y117.566 E1.51073
G1 X93.655 Y117.477 E1.55442
G1 X93.194 Y117.469 E1.58043
G1 X92.418 Y117.526 E1.62434
G1 X91.642 Y117.683 E1.66902
G1 X91.213 Y117.812 E1.69430
G1 X90.498 Y118.104 E1.73783
G1 X90.101 Y118.311 E1.76311
G1 X89.454 Y118.732 E1.80663
G1 X89.103 Y119.010 E1.83192
G1 X88.531 Y119.558 E1.87662
G1 X88.033 Y120.174 E1.92132
G1 X87.785 Y120.547 E1.94660
G1 X87.420 Y121.227 E1.99012
G1 X87.247 Y121.640 E2.01541
G1 X87.016 Y122.376 E2.05893
G1 X86.927 Y122.796 E2.08313
G1 X86.864 Y123.231 E2.10796
G1 X86.824 Y123.988 E2.15070
G1 X86.843 Y124.435 E2.17596
G1 X86.951 Y125.220 E2.22066
G1 X87.156 Y125.985 E2.26535
G1 X87.305 Y126.385 E2.28946
G1 X87.478 Y126.774 E2.31350
G1 X87.272 Y126.958 E2.32907
G1 X79.895 Y122.558 E2.81373
G1 X79.346 Y122.131 E2.85293
G1 X79.086 Y121.887 E2.87306
G1 X78.842 Y121.627 E2.89319
G1 X78.416 Y121.079 E2.93237
G1 X74.022 Y113.705 E3.41671
G1 X74.205 Y113.498 E3.43227
G1 X74.588 Y113.669 E3.45591
G1 X74.988 Y113.817 E3.48001
G1 X75.753 Y114.022 E3.52468
G1 X76.524 Y114.128 E3.56859
G1 X76.985 Y114.149 E3.59459
G1 X77.777 Y114.107 E3.63939
G1 X78.557 Y113.967 E3.68408
G1 X78.989 Y113.847 E3.70937
G1 X79.709 Y113.570 E3.75289
G1 X80.110 Y113.371 E3.77818
G1 X80.766 Y112.964 E3.82169
G1 X81.123 Y112.693 E3.84698
G1 X81.690 Y112.171 E3.89050
G1 X81.990 Y111.838 E3.91579
G1 X82.450 Y111.219 E3.95931
G1 X82.682 Y110.836 E3.98459
G1 X83.018 Y110.141 E4.02812
G1 X83.174 Y109.721 E4.05340
G1 X83.374 Y108.976 E4.09693
G1 X83.448 Y108.534 E4.12221
G1 X83.505 Y107.765 E4.16574
G1 X83.496 Y107.317 E4.19102
G1 X83.404 Y106.530 E4.23572
G1 X83.365 Y106.369 E4.24508
G1 X83.614 Y106.229 E4.26123
G1 X94.745 Y117.359 E5.14939
G1 X94.639 Y117.554 E5.16191
G1 E3.66191 F1800.00000
G92 E0
G1 X82.129 Y110.536 F5400.000
G1 E1.50000 F1800.00000
G1 F1215
G1 X81.928 Y110.868 E1.52194
G1 X81.503 Y111.440 E1.56212
G1 X81.243 Y111.729 E1.58406
G1 X80.719 Y112.211 E1.62424
G1 X80.409 Y112.446 E1.64618
G1 X79.804 Y112.821 E1.68636
G1 X79.456 Y112.994 E1.70830
G1 X78.791 Y113.249 E1.74848
G1 X78.416 Y113.354 E1.77042
G1 X77.705 Y113.482 E1.81121
G1 X76.982 Y113.520 E1.85206
G1 X76.581 Y113.502 E1.87471
G1 X75.878 Y113.405 E1.91476
G1 X75.180 Y113.218 E1.95554
G1 X74.480 Y112.933 E1.99817
G1 X73.850 Y112.578 E2.03897
G1 X73.269 Y112.146 E2.07981
G1 X72.971 Y111.877 E2.10246
G1 X72.491 Y111.354 E2.14251
G1 X72.073 Y110.765 E2.18329
G1 X71.878 Y110.428 E2.20523
G1 X71.582 Y109.781 E2.24541
G1 X71.454 Y109.414 E2.26735
G1 X71.281 Y108.711 E2.30815
G1 X71.198 Y107.993 E2.34894
G1 X71.190 Y107.605 E2.37088
G1 X71.242 Y106.894 E2.41106
G1 X71.307 Y106.511 E2.43300
G1 X71.492 Y105.823 E2.47318
G1 X71.627 Y105.459 E2.49512
G1 X71.937 Y104.818 E2.53529
G1 X72.349 Y104.184 E2.57793
G1 X72.815 Y103.632 E2.61872
G1 X73.347 Y103.142 E2.65952
G1 X73.657 Y102.907 E2.68146
G1 X74.262 Y102.532 E2.72164
G1 X74.949 Y102.217 E2.76427
G1 X75.639 Y102.001 E2.80507
G1 X76.361 Y101.871 E2.84646
G1 X77.070 Y101.834 E2.88651
G1 X77.471 Y101.850 E2.90917
G1 X78.188 Y101.948 E2.95000
G1 X78.887 Y102.135 E2.99080
G1 X79.251 Y102.270 E3.01274
G1 X79.892 Y102.580 E3.05293
G1 X80.536 Y103.000 E3.09631
G1 X81.070 Y103.452 E3.13574
G1 X81.342 Y103.729 E3.15767
G1 X81.797 Y104.291 E3.19847
G1 X82.178 Y104.906 E3.23926
G1 X82.351 Y105.254 E3.26120
G1 X82.610 Y105.929 E3.30200
G1 X82.785 Y106.642 E3.34340
G1 X82.868 Y107.360 E3.38420
G1 X82.876 Y107.749 E3.40614
G1 X82.824 Y108.459 E3.44632
G1 X82.759 Y108.842 E3.46826
G1 X82.575 Y109.530 E3.50844
G1 X82.439 Y109.895 E3.53038
G1 X82.155 Y110.482 E3.56718
G1 X81.696 Y110.300 F5400.000
G1 F1215
G1 X81.518 Y110.593 E3.57816
G1 X81.122 Y111.128 E3.59950
G1 X80.893 Y111.382 E3.61048
G1 X80.403 Y111.832 E3.63182
G1 X80.130 Y112.040 E3.64280
G1 X79.564 Y112.390 E3.66414
G1 X79.257 Y112.542 E3.67513
G1 X78.636 Y112.781 E3.69647
G1 X78.306 Y112.873 E3.70745
G1 X77.648 Y112.991 E3.72889
G1 X76.980 Y113.027 E3.75035
G1 X76.626 Y113.011 E3.76172
G1 X75.976 Y112.921 E3.78276
G1 X75.330 Y112.748 E3.80420
