; generated by Slic3r 1.33.8-prusa3d-win64 on 2017-05-12 at 15:35:26

; external perimeters extrusion width = 0.40mm
; perimeters extrusion width = 0.67mm
; infill extrusion width = 0.67mm
; solid infill extrusion width = 0.67mm
; top infill extrusion width = 0.67mm

M107
M80 ; turn on PSU
M140 S55
M104 S240 ; start E heating
M17; enable motors
G28 X Y ; Z ; Home
M190 S55
M109 S240
G91
G1 E5 F200
G90
G21 ; set units to millimeters
G90 ; use absolute coordinates
M82 ; use absolute distances for extrusion
G92 E0
G1 Z0.200 F5400.000
G1 E-1.50000 F1800.00000
G92 E0
G1 X183.895 Y126.506 F5400.000
G1 E1.50000 F1800.00000
G1 F1200
G1 X184.358 Y125.883 E1.54053
G1 X184.874 Y125.274 E1.58226
G1 X185.416 Y124.712 E1.62301
G1 X186.072 Y124.121 E1.66916
G1 X186.550 Y123.737 E1.70116
G1 X187.041 Y123.385 E1.73277
G1 X187.709 Y122.959 E1.77416
G1 X188.474 Y122.540 E1.81971
G1 X189.179 Y122.214 E1.86030
G1 X189.928 Y121.926 E1.90224
G1 X190.685 Y121.689 E1.94366
G1 X191.444 Y121.504 E1.98448
G1 X192.292 Y121.358 E2.02942
G1 X192.996 Y121.282 E2.06643
G1 X193.860 Y121.245 E2.11161
G1 X194.638 Y121.264 E2.15227
G1 X195.240 Y121.310 E2.18382
G1 X195.847 Y121.391 E2.21578
G1 X196.714 Y121.557 E2.26191
G1 X197.465 Y121.755 E2.30248
G1 X198.226 Y122.010 E2.34440
G1 X198.940 Y122.301 E2.38470
G1 X199.643 Y122.640 E2.42547
G1 X200.333 Y123.031 E2.46692
G1 X200.987 Y123.458 E2.50772
G1 X201.678 Y123.979 E2.55293
G1 X202.277 Y124.499 E2.59440
G1 X202.717 Y124.924 E2.62633
G1 X203.129 Y125.368 E2.65799
G1 X203.684 Y126.039 E2.70347
G1 X204.095 Y126.610 E2.74023
G1 X204.557 Y127.341 E2.78539
G1 X204.928 Y128.030 E2.82628
G1 X205.259 Y128.750 E2.86770
G1 X205.544 Y129.495 E2.90936
G1 X205.801 Y130.340 E2.95554
G1 X205.949 Y130.951 E2.98835
G1 X206.060 Y131.557 E3.02057
G1 X206.171 Y132.446 E3.06737
G1 X206.215 Y133.277 E3.11081
G1 X206.215 Y156.698 E4.33444
G1 X206.161 Y157.655 E4.38452
G1 X206.085 Y158.295 E4.41819
G1 X205.968 Y158.954 E4.45316
G1 X205.773 Y159.768 E4.49691
G1 X205.543 Y160.509 E4.53743
G1 X205.261 Y161.244 E4.57856
G1 X204.946 Y161.934 E4.61818
G1 X204.578 Y162.623 E4.65900
G1 X204.172 Y163.278 E4.69927
G1 X203.724 Y163.909 E4.73971
G1 X203.235 Y164.513 E4.78031
G1 X202.714 Y165.079 E4.82048
G1 X202.154 Y165.615 E4.86101
G1 X201.565 Y166.112 E4.90123
G1 X200.927 Y166.584 E4.94269
G1 X200.296 Y166.992 E4.98200
G1 X199.604 Y167.380 E5.02339
G1 X198.909 Y167.713 E5.06365
G1 X198.106 Y168.033 E5.10885
G1 X197.497 Y168.235 E5.14235
G1 X196.860 Y168.408 E5.17688
G1 X195.848 Y168.609 E5.23075
G1 X195.214 Y168.692 E5.26416
G1 X194.474 Y168.746 E5.30292
G1 X193.733 Y168.755 E5.34167
G1 X193.093 Y168.724 E5.37514
G1 X192.053 Y168.607 E5.42978
G1 X191.401 Y168.487 E5.46442
G1 X190.720 Y168.320 E5.50108
G1 X189.808 Y168.031 E5.55107
G1 X189.206 Y167.797 E5.58480
G1 X188.609 Y167.526 E5.61905
G1 X187.715 Y167.045 E5.67205
G1 X187.159 Y166.697 E5.70637
G1 X186.569 Y166.277 E5.74421
G1 X185.830 Y165.670 E5.79416
G1 X185.361 Y165.234 E5.82764
G1 X184.848 Y164.697 E5.86641
G1 X184.373 Y164.136 E5.90480
G1 X183.989 Y163.625 E5.93822
G1 X183.462 Y162.826 E5.98822
G1 X183.106 Y162.194 E6.02612
G1 X182.818 Y161.604 E6.06039
G1 X182.429 Y160.651 E6.11421
G1 X182.225 Y160.038 E6.14792
G1 X182.055 Y159.410 E6.18196
G1 X179.165 Y148.029 E6.79541
G1 X179.034 Y147.453 E6.82629
G1 X178.888 Y146.588 E6.87211
G1 X178.813 Y145.827 E6.91204
G1 X178.785 Y145.035 E6.95347
G1 X178.803 Y144.339 E6.98983
G1 X178.898 Y143.347 E7.04190
G1 X179.003 Y142.699 E7.07621
G1 X179.147 Y142.047 E7.11109
G1 X182.202 Y130.040 E7.75838
G1 X182.476 Y129.217 E7.80366
G1 X182.820 Y128.392 E7.85038
G1 X183.095 Y127.827 E7.88320
G1 X183.398 Y127.284 E7.91570
G1 X183.861 Y126.555 E7.96082
G1 X184.410 Y126.865 F5400.000
G1 F1200
G1 X184.849 Y126.274 E7.99927
G1 X185.339 Y125.696 E8.03884
G1 X185.853 Y125.164 E8.07750
G1 X186.470 Y124.607 E8.12094
G1 X186.929 Y124.238 E8.15167
G1 X187.405 Y123.897 E8.18230
G1 X188.039 Y123.493 E8.22156
G1 X188.759 Y123.100 E8.26444
G1 X189.429 Y122.791 E8.30294
G1 X190.134 Y122.519 E8.34243
G1 X190.852 Y122.295 E8.38172
G1 X191.572 Y122.120 E8.42044
G1 X192.375 Y121.981 E8.46303
G1 X193.039 Y121.908 E8.49790
G1 X193.857 Y121.873 E8.54072
G1 X194.445 Y121.882 E8.57143
G1 X195.031 Y121.922 E8.60210
G1 X195.777 Y122.015 E8.64138
G1 X196.582 Y122.171 E8.68425
G1 X197.294 Y122.360 E8.72273
G1 X198.006 Y122.598 E8.76193
G1 X198.693 Y122.879 E8.80072
G1 X199.355 Y123.199 E8.83912
G1 X200.014 Y123.572 E8.87871
G1 X200.630 Y123.975 E8.91713
G1 X201.304 Y124.486 E8.96134
G1 X201.740 Y124.857 E8.99125
G1 X202.169 Y125.266 E9.02219
G1 X202.673 Y125.801 E9.06064
G1 X203.195 Y126.434 E9.10346
G1 X203.594 Y126.989 E9.13920
G1 X204.021 Y127.670 E9.18117
G1 X204.380 Y128.338 E9.22079
G1 X204.691 Y129.022 E9.26007
G1 X204.981 Y129.795 E9.30319
G1 X205.160 Y130.371 E9.33472
G1 X205.302 Y130.941 E9.36537
G1 X205.446 Y131.689 E9.40519
G1 X205.546 Y132.510 E9.44840
G1 X205.586 Y133.297 E9.48958
G1 X205.587 Y156.689 E10.71169
G1 X205.536 Y157.593 E10.75899
G1 X205.462 Y158.207 E10.79129
G1 X205.345 Y158.864 E10.82618
G1 X205.163 Y159.615 E10.86654
G1 X204.944 Y160.317 E10.90498
G1 X204.678 Y161.010 E10.94371
G1 X204.369 Y161.683 E10.98242
G1 X204.026 Y162.322 E11.02031
G1 X203.631 Y162.956 E11.05935
G1 X203.205 Y163.554 E11.09771
G1 X202.682 Y164.189 E11.14067
G1 X202.232 Y164.672 E11.17517
G1 X201.634 Y165.235 E11.21805
G1 X201.185 Y165.612 E11.24872
G1 X200.714 Y165.964 E11.27943
G1 X200.098 Y166.375 E11.31812
G1 X199.382 Y166.787 E11.36126
G1 X198.730 Y167.105 E11.39918
G1 X198.036 Y167.391 E11.43841
G1 X197.393 Y167.610 E11.47386
G1 X196.493 Y167.848 E11.52250
G1 X195.880 Y167.969 E11.55515
G1 X195.188 Y168.063 E11.59164
G1 X194.302 Y168.122 E11.63804
G1 X193.692 Y168.125 E11.66992
G1 X192.977 Y168.087 E11.70730
G1 X192.285 Y168.007 E11.74373
G1 X191.680 Y167.901 E11.77582
G1 X190.809 Y167.693 E11.82257
G1 X190.153 Y167.487 E11.85852
G1 X189.564 Y167.264 E11.89142
G1 X188.688 Y166.864 E11.94174
G1 X188.143 Y166.569 E11.97412
G1 X187.602 Y166.236 E12.00730
G1 X186.816 Y165.673 E12.05779
G1 X186.344 Y165.287 E12.08968
G1 X185.825 Y164.809 E12.12651
G1 X185.334 Y164.297 E12.16358
G1 X184.936 Y163.832 E12.19559
G1 X184.353 Y163.050 E12.24651
G1 X184.009 Y162.516 E12.27969
G1 X183.676 Y161.926 E12.31512
G1 X183.290 Y161.119 E12.36184
G1 X183.058 Y160.545 E12.39417
G1 X182.851 Y159.934 E12.42789
G1 X182.661 Y159.245 E12.46524
G1 X179.775 Y147.880 E13.07785
G1 X179.645 Y147.305 E13.10862
G1 X179.510 Y146.496 E13.15148
G1 X179.439 Y145.775 E13.18936
G1 X179.413 Y145.023 E13.22866
G1 X179.432 Y144.346 E13.26403
G1 X179.521 Y143.428 E13.31220
G1 X179.620 Y142.818 E13.34453
G1 X179.760 Y142.182 E13.37851
G1 X182.807 Y130.212 E14.02383
G1 X183.064 Y129.438 E14.06646
G1 X183.385 Y128.666 E14.11017
G1 X183.654 Y128.114 E14.14222
G1 X183.945 Y127.593 E14.17341
G1 X184.377 Y126.914 E14.21541
G1 E12.71541 F1800.00000
G92 E0
G1 X191.603 Y151.207 F5400.000
G1 E1.50000 F1800.00000
G1 F1200
G1 X192.275 Y150.957 E1.53744
G1 X192.648 Y150.857 E1.55760
G1 X193.354 Y150.738 E1.59503
G1 X194.053 Y150.708 E1.63158
G1 X194.455 Y150.728 E1.65258
G1 X195.154 Y150.831 E1.68951
G1 X195.529 Y150.923 E1.70966
G1 X196.205 Y151.159 E1.74711
G1 X196.847 Y151.477 E1.78455
G1 X197.175 Y151.681 E1.80471
G1 X197.737 Y152.107 E1.84158
G1 X198.021 Y152.368 E1.86173
G1 X198.494 Y152.893 E1.89861
G1 X198.717 Y153.194 E1.91819
G1 X198.921 Y153.508 E1.93777
G1 X199.253 Y154.143 E1.97521
G1 X199.507 Y154.825 E2.01323
G1 X199.673 Y155.534 E2.05125
G1 X199.748 Y156.246 E2.08869
G1 X199.752 Y156.632 E2.10884
G1 X199.693 Y157.336 E2.14572
G1 X199.626 Y157.705 E2.16535
G1 X199.532 Y158.085 E2.18578
G1 X199.301 Y158.746 E2.22234
G1 X198.983 Y159.387 E2.25977
G1 X198.785 Y159.707 E2.27940
G1 X198.557 Y160.025 E2.29984
G1 X198.107 Y160.546 E2.33582
G1 X197.829 Y160.813 E2.35596
G1 X197.275 Y161.251 E2.39284
G1 X196.952 Y161.461 E2.41299
G1 X196.326 Y161.788 E2.44987
G1 X195.969 Y161.934 E2.47001
G1 X195.283 Y162.141 E2.50745
G1 X194.566 Y162.262 E2.54547
G1 X193.839 Y162.293 E2.58349
G1 X193.125 Y162.233 E2.62093
G1 X192.745 Y162.165 E2.64107
G1 X192.082 Y161.980 E2.67705
G1 X191.716 Y161.841 E2.69748
G1 X191.374 Y161.684 E2.71712
G1 X190.754 Y161.326 E2.75457
G1 X190.183 Y160.893 E2.79201
G1 X189.899 Y160.632 E2.81217
G1 X189.427 Y160.107 E2.84904
G1 X189.197 Y159.797 E2.86920
G1 X188.831 Y159.194 E2.90607
G1 X188.668 Y158.856 E2.92565
G1 X188.526 Y158.509 E2.94523
G1 X188.319 Y157.823 E2.98268
G1 X188.198 Y157.108 E3.02059
G1 X188.166 Y156.428 E3.05613
G1 X188.188 Y156.004 E3.07830
G1 X188.293 Y155.295 E3.11574
G1 X188.485 Y154.605 E3.15319
G1 X188.776 Y153.914 E3.19233
G1 X189.134 Y153.294 E3.22977
G1 X189.567 Y152.723 E3.26722
G1 X190.092 Y152.187 E3.30636
G1 X190.645 Y151.749 E3.34324
G1 X190.968 Y151.539 E3.36339
G1 X191.550 Y151.235 E3.39770
G1 X191.804 Y151.658 F5400.000
G1 F1200
G1 X192.425 Y151.427 E3.41737
G1 X192.753 Y151.339 E3.42744
G1 X193.406 Y151.229 E3.44711
G1 X194.052 Y151.201 E3.46630
G1 X194.406 Y151.219 E3.47685
G1 X195.059 Y151.315 E3.49643
G1 X195.388 Y151.396 E3.50651
G1 X196.014 Y151.614 E3.52617
G1 X196.607 Y151.908 E3.54585
G1 X196.896 Y152.087 E3.55592
G1 X197.421 Y152.486 E3.57549
G1 X197.671 Y152.715 E3.58557
G1 X198.112 Y153.205 E3.60514
G1 X198.312 Y153.475 E3.61512
G1 X198.495 Y153.757 E3.62510
G1 X198.802 Y154.344 E3.64477
G1 X199.034 Y154.968 E3.66453
G1 X199.186 Y155.616 E3.68430
G1 X199.255 Y156.275 E3.70397
G1 X199.259 Y156.614 E3.71404
G1 X199.204 Y157.271 E3.73362
G1 X199.144 Y157.602 E3.74361
G1 X199.059 Y157.944 E3.75406
G1 X198.846 Y158.554 E3.77325
G1 X198.552 Y159.147 E3.79292
G1 X198.375 Y159.433 E3.80290
G1 X198.170 Y159.720 E3.81336
G1 X197.749 Y160.206 E3.83245
G1 X197.504 Y160.441 E3.84252
G1 X196.988 Y160.850 E3.86210
G1 X196.703 Y161.035 E3.87217
G1 X196.119 Y161.341 E3.89175
G1 X195.805 Y161.469 E3.90182
G1 X195.170 Y161.660 E3.92149
G1 X194.514 Y161.771 E3.94125
G1 X193.849 Y161.799 E3.96102
G1 X193.189 Y161.744 E3.98069
G1 X192.855 Y161.684 E3.99076
G1 X192.236 Y161.511 E4.00985
G1 X191.907 Y161.386 E4.02031
G1 X191.601 Y161.246 E4.03030
G1 X191.027 Y160.915 E4.04997
G1 X190.499 Y160.514 E4.06964
G1 X190.249 Y160.285 E4.07971
G1 X189.808 Y159.795 E4.09928
G1 X189.606 Y159.522 E4.10936
G1 X189.264 Y158.958 E4.12893
G1 X189.118 Y158.656 E4.13891
G1 X188.991 Y158.345 E4.14889
G1 X188.800 Y157.710 E4.16856
G1 X188.689 Y157.055 E4.18831
G1 X188.659 Y156.429 E4.20690
G1 X188.679 Y156.053 E4.21808
G1 X188.775 Y155.398 E4.23775
G1 X188.954 Y154.760 E4.25741
G1 X189.214 Y154.141 E4.27736
G1 X189.545 Y153.567 E4.29703
G1 X189.946 Y153.039 E4.31670
G1 X190.416 Y152.559 E4.33665
G1 X190.933 Y152.150 E4.35623
G1 X191.217 Y151.965 E4.36630
G1 X191.751 Y151.686 E4.38419
G1 X191.850 Y151.260 F5400.000
G1 E2.88419 F1800.00000
G92 E0
G1 X187.863 Y154.474 F5400.000
G1 E1.50000 F1800.00000
G1 F1200
G1 X187.588 Y154.457 E1.51441
G1 X185.546 Y146.434 E1.94695
G1 X185.408 Y145.712 E1.98537
G1 X185.363 Y145.000 E2.02262
G1 X185.408 Y144.288 E2.05988
G1 X185.546 Y143.566 E2.09830
G1 X187.588 Y135.543 E2.53084
G1 X187.863 Y135.526 E2.54524
G1 X188.040 Y135.989 E2.57110
G1 X188.217 Y136.374 E2.59327
G1 X188.610 Y137.055 E2.63432
G1 X189.097 Y137.697 E2.67647
G1 X189.647 Y138.259 E2.71752
G1 X189.987 Y138.546 E2.74077
G1 X190.632 Y138.995 E2.78183
G1 X191.329 Y139.359 E2.82289
G1 X191.722 Y139.519 E2.84505
G1 X192.124 Y139.654 E2.86721
G1 X192.889 Y139.834 E2.90828
G1 X193.670 Y139.916 E2.94933
G1 X194.115 Y139.920 E2.97258
G1 X194.878 Y139.856 E3.01255
G1 X195.295 Y139.781 E3.03471
G1 X195.707 Y139.680 E3.05687
G1 X196.449 Y139.422 E3.09793
G1 X197.153 Y139.072 E3.13899
G1 X197.531 Y138.838 E3.16224
G1 X198.141 Y138.375 E3.20220
G1 X198.468 Y138.074 E3.22546
G1 X198.980 Y137.505 E3.26543
G1 X199.368 Y136.958 E3.30046
G1 X199.637 Y137.038 E3.31517
G1 X199.637 Y152.962 E4.14712
G1 X199.368 Y153.042 E4.16183
G1 X198.980 Y152.495 E4.19686
G1 X198.468 Y151.926 E4.23684
G1 X198.141 Y151.625 E4.26009
G1 X197.531 Y151.162 E4.30005
G1 X197.153 Y150.928 E4.32330
G1 X196.449 Y150.578 E4.36436
G1 X195.707 Y150.320 E4.40542
G1 X195.275 Y150.214 E4.42867
G1 X194.516 Y150.102 E4.46874
G1 X194.055 Y150.079 E4.49285
G1 X193.288 Y150.112 E4.53297
G1 X192.514 Y150.243 E4.57400
G1 X192.084 Y150.358 E4.59725
G1 X191.347 Y150.632 E4.63830
G1 X190.651 Y150.996 E4.67936
G1 X190.278 Y151.238 E4.70261
G1 X189.678 Y151.713 E4.74259
G1 X189.372 Y152.007 E4.76474
G1 X189.085 Y152.319 E4.78690
G1 X188.610 Y152.945 E4.82797
G1 X188.217 Y153.626 E4.86902
G1 X188.040 Y154.011 E4.89118
G1 X187.884 Y154.418 E4.91391
G1 E3.41391 F1800.00000
G92 E0
G1 X192.994 Y139.213 F5400.000
G1 E1.50000 F1800.00000
G1 F1200
G1 X192.296 Y139.049 E1.53745
G1 X191.941 Y138.930 E1.55703
G1 X191.594 Y138.788 E1.57661
G1 X190.959 Y138.456 E1.61406
G1 X190.370 Y138.047 E1.65150
G1 X190.075 Y137.798 E1.67165
G1 X189.574 Y137.286 E1.70910
G1 X189.134 Y136.706 E1.74711
G1 X188.776 Y136.086 E1.78456
G1 X188.620 Y135.745 E1.80414
G1 X188.486 Y135.396 E1.82365
G1 X188.300 Y134.742 E1.85919
G1 X188.227 Y134.335 E1.88076
G1 X188.167 Y133.621 E1.91820
G1 X188.197 Y132.905 E1.95564
G1 X188.248 Y132.534 E1.97523
G1 X188.322 Y132.166 E1.99481
G1 X188.529 Y131.480 E2.03225
G1 X188.821 Y130.826 E2.06970
G1 X189.010 Y130.490 E2.08985
G1 X189.413 Y129.910 E2.12672
G1 X189.662 Y129.615 E2.14688
G1 X190.166 Y129.122 E2.18375
G1 X190.458 Y128.886 E2.20334
G1 X190.763 Y128.669 E2.22292
G1 X191.374 Y128.316 E2.25979
G1 X191.725 Y128.155 E2.27995
G1 X192.402 Y127.919 E2.31739
G1 X193.113 Y127.768 E2.35539
G1 X193.811 Y127.709 E2.39195
G1 X194.213 Y127.712 E2.41294
G1 X194.915 Y127.786 E2.44987
G1 X195.294 Y127.862 E2.47003
G1 X195.969 Y128.066 E2.50690
G1 X196.326 Y128.212 E2.52705
G1 X196.952 Y128.539 E2.56392
G1 X197.275 Y128.749 E2.58408
G1 X197.829 Y129.187 E2.62096
G1 X198.107 Y129.454 E2.64110
G1 X198.575 Y129.997 E2.67855
G1 X198.978 Y130.603 E2.71656
G1 X199.301 Y131.255 E2.75458
G1 X199.537 Y131.932 E2.79203
G1 X199.693 Y132.664 E2.83117
G1 X199.752 Y133.368 E2.86805
G1 X199.748 Y133.754 E2.88820
G1 X199.673 Y134.466 E2.92564
G1 X199.507 Y135.175 E2.96366
G1 X199.253 Y135.857 E3.00167
G1 X198.921 Y136.492 E3.03912
G1 X198.494 Y137.107 E3.07826
G1 X198.021 Y137.632 E3.11514
G1 X197.737 Y137.893 E3.13529
G1 X197.175 Y138.319 E3.17216
G1 X196.847 Y138.523 E3.19231
G1 X196.205 Y138.841 E3.22976
G1 X195.529 Y139.077 E3.26720
G1 X195.164 Y139.166 E3.28679
G1 X194.796 Y139.233 E3.30637
G1 X194.092 Y139.292 E3.34324
G1 X193.707 Y139.288 E3.36340
G1 X193.054 Y139.219 E3.39770
G1 X193.076 Y138.726 F5400.000
G1 F1200
G1 X192.431 Y138.575 E3.41737
G1 X192.113 Y138.468 E3.42735
G1 X191.801 Y138.341 E3.43733
G1 X191.214 Y138.034 E3.45700
G1 X190.670 Y137.656 E3.47667
G1 X190.411 Y137.437 E3.48675
G1 X189.948 Y136.963 E3.50641
G1 X189.545 Y136.433 E3.52618
G1 X189.214 Y135.859 E3.54585
G1 X189.074 Y135.554 E3.55583
G1 X188.954 Y135.240 E3.56579
G1 X188.781 Y134.631 E3.58461
G1 X188.716 Y134.271 E3.59546
G1 X188.661 Y133.611 E3.61513
G1 X188.689 Y132.949 E3.63480
G1 X188.734 Y132.616 E3.64478
G1 X188.801 Y132.287 E3.65476
G1 X188.992 Y131.652 E3.67443
G1 X189.262 Y131.047 E3.69410
G1 X189.428 Y130.752 E3.70417
G1 X189.804 Y130.210 E3.72375
G1 X190.023 Y129.951 E3.73382
G1 X190.494 Y129.490 E3.75340
G1 X190.756 Y129.278 E3.76338
G1 X191.030 Y129.084 E3.77336
G1 X191.601 Y128.754 E3.79293
G1 X191.909 Y128.613 E3.80301
G1 X192.535 Y128.395 E3.82267
G1 X193.186 Y128.256 E3.84244
G1 X193.830 Y128.202 E3.86162
G1 X194.185 Y128.205 E3.87217
G1 X194.841 Y128.273 E3.89176
G1 X195.173 Y128.341 E3.90183
G1 X195.805 Y128.531 E3.92141
G1 X196.119 Y128.659 E3.93148
G1 X196.703 Y128.965 E3.95105
G1 X196.988 Y129.150 E3.96113
G1 X197.504 Y129.559 E3.98071
G1 X197.749 Y129.794 E3.99078
G1 X198.182 Y130.295 E4.01045
G1 X198.550 Y130.850 E4.03021
G1 X198.846 Y131.446 E4.04997
G1 X199.064 Y132.072 E4.06964
G1 X199.204 Y132.729 E4.08959
G1 X199.259 Y133.386 E4.10917
G1 X199.255 Y133.725 E4.11924
G1 X199.186 Y134.384 E4.13891
G1 X199.034 Y135.032 E4.15868
