; generated by Slic3r 1.33.8-prusa3d-win64 on 2017-05-12 at 15:32:38

; external perimeters extrusion width = 0.40mm
; perimeters extrusion width = 0.67mm
; infill extrusion width = 0.67mm
; solid infill extrusion width = 0.67mm
; top infill extrusion width = 0.67mm

M107
M80 ; turn on PSU
M140 S55
M104 S240 ; start E heating
M17; enable motors
G28 X Y ; Z ; Home
M190 S55
M109 S240
G91
G1 E5 F200
G90
G21 ; set units to millimeters
G90 ; use absolute coordinates
M82 ; use absolute distances for extrusion
G92 E0
G1 Z0.200 F5400.000
G1 E-1.50000 F1800.00000
G92 E0
G1 X176.851 Y135.440 F5400.000
G1 E1.50000 F1800.00000
G1 F1200
G1 X177.459 Y134.656 E1.55185
G1 X178.042 Y133.989 E1.59811
G1 X178.892 Y133.131 E1.66122
G1 X179.628 Y132.482 E1.71250
G1 X180.335 Y131.930 E1.75935
G1 X181.409 Y131.200 E1.82720
G1 X182.168 Y130.755 E1.87315
G1 X182.970 Y130.343 E1.92029
G1 X184.163 Y129.829 E1.98815
G1 X184.997 Y129.532 E2.03438
G1 X185.956 Y129.254 E2.08656
G1 X186.930 Y129.036 E2.13872
G1 X187.799 Y128.895 E2.18470
G1 X189.109 Y128.769 E2.25344
G1 X190.011 Y128.743 E2.30057
G1 X190.986 Y128.773 E2.35155
G1 X192.188 Y128.893 E2.41466
G1 X193.062 Y129.034 E2.46092
G1 X194.015 Y129.247 E2.51193
G1 X195.173 Y129.590 E2.57503
G1 X196.005 Y129.893 E2.62129
G1 X196.916 Y130.288 E2.67314
G1 X197.975 Y130.836 E2.73547
G1 X198.729 Y131.286 E2.78134
G1 X199.555 Y131.848 E2.83351
G1 X200.344 Y132.459 E2.88569
G1 X201.006 Y133.038 E2.93165
G1 X201.854 Y133.875 E2.99387
G1 X202.511 Y134.620 E3.04577
G1 X203.056 Y135.317 E3.09200
G1 X203.741 Y136.312 E3.15512
G1 X204.237 Y137.153 E3.20611
G1 X204.642 Y137.940 E3.25236
G1 X205.127 Y139.047 E3.31549
G1 X205.457 Y139.965 E3.36646
G1 X205.712 Y140.830 E3.41360
G1 X205.997 Y142.116 E3.48242
G1 X206.131 Y142.984 E3.52829
G1 X206.225 Y143.979 E3.58049
G1 X206.257 Y144.977 E3.63264
G1 X206.232 Y145.856 E3.67862
G1 X206.113 Y147.149 E3.74642
G1 X205.970 Y148.040 E3.79360
G1 X205.779 Y148.905 E3.83986
G1 X205.418 Y150.152 E3.90768
G1 X205.109 Y151.000 E3.95483
G1 X204.720 Y151.900 E4.00609
G1 X204.168 Y152.969 E4.06894
G1 X203.717 Y153.725 E4.11492
G1 X203.159 Y154.546 E4.16678
G1 X202.419 Y155.488 E4.22937
G1 X201.836 Y156.144 E4.27524
G1 X201.125 Y156.854 E4.32771
G1 X200.376 Y157.515 E4.37988
G1 X199.683 Y158.056 E4.42584
G1 X198.687 Y158.741 E4.48895
G1 X197.847 Y159.237 E4.53994
G1 X197.060 Y159.642 E4.58619
G1 X195.953 Y160.127 E4.64932
G1 X195.035 Y160.457 E4.70029
G1 X194.170 Y160.712 E4.74744
G1 X192.884 Y160.997 E4.81624
G1 X192.016 Y161.131 E4.86213
G1 X191.021 Y161.225 E4.91431
G1 X190.023 Y161.257 E4.96647
G1 X189.144 Y161.232 E5.01243
G1 X187.851 Y161.113 E5.08026
G1 X186.960 Y160.970 E5.12741
G1 X186.095 Y160.779 E5.17369
G1 X184.848 Y160.418 E5.24151
G1 X184.006 Y160.111 E5.28837
G1 X183.105 Y159.722 E5.33963
G1 X182.031 Y159.168 E5.40276
G1 X181.271 Y158.714 E5.44901
G1 X180.454 Y158.159 E5.50059
G1 X179.512 Y157.419 E5.56318
G1 X178.856 Y156.836 E5.60907
G1 X178.150 Y156.129 E5.66127
G1 X177.489 Y155.380 E5.71344
G1 X176.947 Y154.687 E5.75940
G1 X176.262 Y153.692 E5.82249
G1 X175.763 Y152.847 E5.87377
G1 X175.358 Y152.060 E5.92003
G1 X174.875 Y150.959 E5.98287
G1 X174.543 Y150.035 E6.03413
G1 X174.290 Y149.175 E6.08097
G1 X174.005 Y147.897 E6.14939
G1 X173.871 Y147.033 E6.19508
G1 X173.784 Y146.134 E6.24223
G1 X173.746 Y144.835 E6.31015
G1 X173.777 Y143.958 E6.35601
G1 X173.871 Y142.963 E6.40819
G1 X174.027 Y141.977 E6.46036
G1 X174.218 Y141.106 E6.50693
G1 X174.581 Y139.854 E6.57505
G1 X174.889 Y139.005 E6.62223
G1 X175.276 Y138.110 E6.67317
G1 X175.830 Y137.036 E6.73631
G1 X176.280 Y136.280 E6.78225
G1 X176.816 Y135.489 E6.83221
G1 X177.356 Y135.815 F5400.000
G1 F1200
G1 X177.947 Y135.052 E6.88265
G1 X178.510 Y134.409 E6.92728
G1 X179.304 Y133.605 E6.98634
G1 X180.024 Y132.970 E7.03652
G1 X180.702 Y132.440 E7.08143
G1 X181.642 Y131.794 E7.14105
G1 X182.460 Y131.311 E7.19067
G1 X183.220 Y130.921 E7.23530
G1 X184.270 Y130.460 E7.29521
G1 X185.159 Y130.141 E7.34454
G1 X185.999 Y129.894 E7.39029
G1 X187.215 Y129.623 E7.45537
G1 X188.060 Y129.492 E7.50008
G1 X189.017 Y129.403 E7.55028
G1 X189.982 Y129.372 E7.60073
G1 X190.841 Y129.396 E7.64563
G1 X192.062 Y129.509 E7.70968
G1 X192.927 Y129.648 E7.75543
G1 X193.766 Y129.834 E7.80036
G1 X194.943 Y130.175 E7.86439
G1 X195.766 Y130.474 E7.91014
G1 X196.638 Y130.851 E7.95975
G1 X197.652 Y131.375 E8.01938
G1 X198.386 Y131.812 E8.06401
G1 X199.185 Y132.355 E8.11447
G1 X199.948 Y132.947 E8.16493
G1 X200.591 Y133.510 E8.20956
G1 X201.395 Y134.304 E8.26862
G1 X202.031 Y135.025 E8.31882
G1 X202.560 Y135.702 E8.36371
G1 X203.209 Y136.647 E8.42361
G1 X203.689 Y137.460 E8.47296
G1 X204.079 Y138.220 E8.51759
G1 X204.540 Y139.270 E8.57750
G1 X204.859 Y140.159 E8.62683
G1 X205.106 Y140.999 E8.67257
G1 X205.377 Y142.215 E8.73766
G1 X205.507 Y143.055 E8.78209
G1 X205.597 Y144.017 E8.83258
G1 X205.628 Y144.982 E8.88301
G1 X205.604 Y145.836 E8.92766
G1 X205.491 Y147.062 E8.99196
G1 X205.352 Y147.927 E9.03773
G1 X205.168 Y148.761 E9.08236
G1 X204.825 Y149.943 E9.14668
G1 X204.528 Y150.761 E9.19215
G1 X204.151 Y151.633 E9.24176
G1 X203.625 Y152.652 E9.30168
G1 X203.188 Y153.387 E9.34633
G1 X202.651 Y154.176 E9.39622
G1 X201.950 Y155.070 E9.45554
G1 X201.383 Y155.709 E9.50017
G1 X200.700 Y156.391 E9.55063
G1 X199.976 Y157.030 E9.60109
G1 X199.298 Y157.560 E9.64600
G1 X198.358 Y158.206 E9.70562
G1 X197.545 Y158.687 E9.75497
G1 X196.780 Y159.079 E9.79987
G1 X195.730 Y159.540 E9.85978
G1 X194.841 Y159.859 E9.90911
G1 X194.001 Y160.106 E9.95486
G1 X192.789 Y160.376 E10.01973
G1 X191.945 Y160.507 E10.06438
G1 X190.983 Y160.597 E10.11485
G1 X190.018 Y160.628 E10.16530
G1 X189.164 Y160.604 E10.20993
G1 X187.938 Y160.491 E10.27425
G1 X187.073 Y160.352 E10.32000
G1 X186.239 Y160.168 E10.36465
G1 X185.057 Y159.825 E10.42897
G1 X184.239 Y159.528 E10.47444
G1 X183.367 Y159.151 E10.52404
G1 X182.348 Y158.625 E10.58395
G1 X181.614 Y158.188 E10.62858
G1 X180.824 Y157.651 E10.67849
G1 X179.930 Y156.950 E10.73782
G1 X179.291 Y156.383 E10.78246
G1 X178.608 Y155.699 E10.83294
G1 X177.969 Y154.975 E10.88340
G1 X177.444 Y154.302 E10.92803
G1 X176.794 Y153.358 E10.98790
G1 X176.311 Y152.540 E11.03753
G1 X175.921 Y151.780 E11.08216
G1 X175.460 Y150.730 E11.14207
G1 X175.141 Y149.841 E11.19140
G1 X174.894 Y149.001 E11.23714
G1 X174.625 Y147.795 E11.30174
G1 X174.493 Y146.945 E11.34667
G1 X174.403 Y145.983 E11.39713
G1 X174.372 Y145.018 E11.44759
G1 X174.396 Y144.164 E11.49221
G1 X174.509 Y142.938 E11.55655
G1 X174.648 Y142.073 E11.60229
G1 X174.831 Y141.244 E11.64666
G1 X175.175 Y140.057 E11.71125
G1 X175.473 Y139.238 E11.75674
G1 X175.847 Y138.372 E11.80606
G1 X176.370 Y137.357 E11.86570
G1 X176.809 Y136.619 E11.91059
G1 X177.321 Y135.864 E11.95822
G1 E10.45822 F1800.00000
G92 E0
G1 X182.158 Y139.302 F5400.000
G1 E1.50000 F1800.00000
G1 F1200
G1 X182.536 Y138.816 E1.53218
G1 X182.934 Y138.365 E1.56361
G1 X183.365 Y137.934 E1.59543
G1 X183.821 Y137.531 E1.62724
G1 X184.303 Y137.158 E1.65905
G1 X184.806 Y136.816 E1.69087
G1 X185.330 Y136.506 E1.72268
G1 X185.873 Y136.229 E1.75449
G1 X186.432 Y135.988 E1.78631
G1 X187.005 Y135.781 E1.81812
G1 X187.589 Y135.611 E1.84993
G1 X188.184 Y135.479 E1.88175
G1 X188.785 Y135.383 E1.91356
G1 X189.391 Y135.326 E1.94538
G1 X190.046 Y135.306 E1.97961
G1 X190.610 Y135.326 E2.00910
G1 X191.215 Y135.383 E2.04082
G1 X191.816 Y135.479 E2.07263
G1 X192.403 Y135.610 E2.10406
G1 X192.995 Y135.781 E2.13625
G1 X193.568 Y135.988 E2.16807
G1 X194.127 Y136.229 E2.19989
G1 X194.670 Y136.506 E2.23170
G1 X195.194 Y136.816 E2.26352
G1 X195.691 Y137.154 E2.29495
G1 X196.179 Y137.531 E2.32714
G1 X196.641 Y137.939 E2.35934
G1 X197.066 Y138.365 E2.39077
G1 X197.469 Y138.821 E2.42258
G1 X197.842 Y139.303 E2.45440
G1 X198.184 Y139.806 E2.48621
G1 X198.494 Y140.330 E2.51802
G1 X198.771 Y140.873 E2.54984
G1 X199.012 Y141.432 E2.58165
G1 X199.219 Y142.005 E2.61346
G1 X199.389 Y142.589 E2.64528
G1 X199.521 Y143.184 E2.67709
G1 X199.617 Y143.785 E2.70890
G1 X199.674 Y144.391 E2.74072
G1 X199.693 Y145.000 E2.77253
G1 X199.674 Y145.609 E2.80434
G1 X199.617 Y146.215 E2.83616
G1 X199.521 Y146.816 E2.86797
G1 X199.389 Y147.411 E2.89978
G1 X199.219 Y147.996 E2.93161
G1 X199.009 Y148.575 E2.96379
G1 X198.771 Y149.127 E2.99522
G1 X198.494 Y149.670 E3.02705
G1 X198.180 Y150.200 E3.05923
G1 X197.842 Y150.697 E3.09066
G1 X197.469 Y151.179 E3.12248
G1 X197.066 Y151.635 E3.15429
G1 X196.635 Y152.066 E3.18611
G1 X196.179 Y152.469 E3.21792
G1 X195.697 Y152.842 E3.24973
G1 X195.194 Y153.184 E3.28155
G1 X194.670 Y153.494 E3.31336
G1 X194.127 Y153.771 E3.34517
G1 X193.568 Y154.012 E3.37699
G1 X192.995 Y154.219 E3.40880
G1 X192.411 Y154.389 E3.44061
G1 X191.816 Y154.521 E3.47243
G1 X191.215 Y154.617 E3.50424
G1 X190.609 Y154.674 E3.53605
G1 X190.000 Y154.693 E3.56787
G1 X189.391 Y154.674 E3.59968
G1 X188.785 Y154.617 E3.63150
G1 X188.184 Y154.521 E3.66331
G1 X187.589 Y154.389 E3.69512
G1 X187.005 Y154.219 E3.72694
G1 X186.432 Y154.012 E3.75875
G1 X185.873 Y153.771 E3.79056
G1 X185.330 Y153.494 E3.82238
G1 X184.806 Y153.184 E3.85419
G1 X184.303 Y152.842 E3.88600
G1 X183.821 Y152.469 E3.91782
G1 X183.365 Y152.066 E3.94963
G1 X182.934 Y151.635 E3.98144
G1 X182.531 Y151.178 E4.01327
G1 X182.154 Y150.691 E4.04545
G1 X181.816 Y150.194 E4.07688
G1 X181.506 Y149.670 E4.10870
G1 X181.229 Y149.127 E4.14051
G1 X180.988 Y148.568 E4.17233
G1 X180.781 Y147.995 E4.20414
G1 X180.611 Y147.411 E4.23595
G1 X180.479 Y146.816 E4.26777
G1 X180.383 Y146.215 E4.29958
G1 X180.326 Y145.610 E4.33130
G1 X180.306 Y145.046 E4.36079
G1 X180.326 Y144.391 E4.39503
G1 X180.383 Y143.785 E4.42684
G1 X180.479 Y143.184 E4.45865
G1 X180.611 Y142.589 E4.49047
G1 X180.781 Y142.005 E4.52228
G1 X180.988 Y141.432 E4.55409
G1 X181.229 Y140.873 E4.58591
G1 X181.506 Y140.330 E4.61772
G1 X181.816 Y139.806 E4.64953
G1 X182.125 Y139.352 E4.67823
G1 X182.557 Y139.592 F5400.000
G1 F1200
G1 X182.916 Y139.130 E4.69560
G1 X183.293 Y138.702 E4.71255
G1 X183.702 Y138.293 E4.72971
G1 X184.136 Y137.911 E4.74687
G1 X184.592 Y137.557 E4.76403
G1 X185.070 Y137.232 E4.78119
G1 X185.568 Y136.938 E4.79835
G1 X186.083 Y136.676 E4.81551
G1 X186.613 Y136.446 E4.83267
G1 X187.157 Y136.250 E4.84983
G1 X187.712 Y136.089 E4.86699
G1 X188.276 Y135.963 E4.88415
G1 X188.847 Y135.872 E4.90131
G1 X189.422 Y135.818 E4.91847
G1 X190.045 Y135.798 E4.93697
G1 X190.578 Y135.818 E4.95281
G1 X191.153 Y135.872 E4.96996
G1 X191.724 Y135.963 E4.98712
G1 X192.281 Y136.087 E5.00406
G1 X192.843 Y136.250 E5.02143
G1 X193.387 Y136.446 E5.03860
G1 X193.917 Y136.676 E5.05576
G1 X194.432 Y136.938 E5.07292
G1 X194.930 Y137.232 E5.09008
G1 X195.402 Y137.553 E5.10703
G1 X195.864 Y137.911 E5.12440
G1 X196.303 Y138.298 E5.14177
G1 X196.707 Y138.702 E5.15872
G1 X197.089 Y139.136 E5.17588
G1 X197.443 Y139.592 E5.19304
G1 X197.768 Y140.070 E5.21020
G1 X198.062 Y140.568 E5.22736
G1 X198.324 Y141.083 E5.24452
G1 X198.554 Y141.613 E5.26168
G1 X198.750 Y142.157 E5.27884
G1 X198.911 Y142.712 E5.29600
G1 X199.037 Y143.276 E5.31316
G1 X199.128 Y143.847 E5.33032
G1 X199.182 Y144.422 E5.34749
G1 X199.200 Y145.000 E5.36465
G1 X199.182 Y145.578 E5.38181
G1 X199.128 Y146.153 E5.39897
G1 X199.037 Y146.724 E5.41613
G1 X198.911 Y147.288 E5.43329
G1 X198.750 Y147.843 E5.45045
G1 X198.551 Y148.393 E5.46782
G1 X198.324 Y148.917 E5.48477
G1 X198.062 Y149.432 E5.50193
G1 X197.764 Y149.936 E5.51930
G1 X197.443 Y150.408 E5.53625
G1 X197.089 Y150.864 E5.55341
G1 X196.707 Y151.298 E5.57057
G1 X196.298 Y151.707 E5.58773
G1 X195.864 Y152.089 E5.60489
G1 X195.408 Y152.443 E5.62205
G1 X194.930 Y152.768 E5.63921
G1 X194.432 Y153.062 E5.65637
G1 X193.917 Y153.324 E5.67353
G1 X193.387 Y153.554 E5.69069
G1 X192.843 Y153.750 E5.70786
G1 X192.288 Y153.911 E5.72502
G1 X191.724 Y154.037 E5.74218
G1 X191.153 Y154.128 E5.75934
G1 X190.578 Y154.182 E5.77650
G1 X190.000 Y154.200 E5.79366
G1 X189.422 Y154.182 E5.81082
G1 X188.847 Y154.128 E5.82798
G1 X188.276 Y154.037 E5.84514
G1 X187.712 Y153.911 E5.86230
G1 X187.157 Y153.750 E5.87946
G1 X186.613 Y153.554 E5.89662
G1 X186.083 Y153.324 E5.91378
G1 X185.568 Y153.062 E5.93094
G1 X185.070 Y152.768 E5.94810
G1 X184.592 Y152.443 E5.96526
G1 X184.136 Y152.089 E5.98242
G1 X183.702 Y151.707 E5.99958
G1 X183.293 Y151.298 E6.01674
G1 X182.911 Y150.864 E6.03391
G1 X182.553 Y150.402 E6.05128
G1 X182.232 Y149.930 E6.06823
G1 X181.938 Y149.432 E6.08539
G1 X181.676 Y148.917 E6.10255
G1 X181.446 Y148.387 E6.11971
G1 X181.250 Y147.843 E6.13687
G1 X181.089 Y147.288 E6.15403
G1 X180.963 Y146.724 E6.17119
G1 X180.872 Y146.153 E6.18835
G1 X180.818 Y145.578 E6.20549
G1 X180.798 Y145.045 E6.22134
G1 X180.818 Y144.422 E6.23983
G1 X180.872 Y143.847 E6.25699
G1 X180.963 Y143.276 E6.27415
G1 X181.089 Y142.712 E6.29131
G1 X181.250 Y142.157 E6.30848
G1 X181.446 Y141.613 E6.32564
G1 X181.676 Y141.083 E6.34280
G1 X181.938 Y140.568 E6.35996
G1 X182.232 Y140.070 E6.37712
G1 X182.523 Y139.642 E6.39250
G1 X182.395 Y139.227 F5400.000
G1 X181.661 Y138.942 F5400.000
G1 F1200
G1 X182.058 Y138.430 E6.42633
G1 X182.487 Y137.944 E6.46016
G1 X182.944 Y137.487 E6.49398
G1 X183.430 Y137.058 E6.52781
G1 X183.942 Y136.661 E6.56164
G1 X184.477 Y136.298 E6.59547
G1 X185.035 Y135.968 E6.62930
G1 X185.611 Y135.674 E6.66313
G1 X186.206 Y135.417 E6.69695
G1 X186.815 Y135.198 E6.73078
G1 X187.437 Y135.017 E6.76461
G1 X188.069 Y134.876 E6.79844
G1 X188.708 Y134.774 E6.83227
G1 X189.353 Y134.713 E6.86608
G1 X190.008 Y134.693 E6.90036
G1 X190.647 Y134.713 E6.93375
G1 X191.292 Y134.774 E6.96758
G1 X191.931 Y134.876 E7.00141
G1 X192.563 Y135.017 E7.03524
G1 X193.185 Y135.198 E7.06907
G1 X193.794 Y135.417 E7.10290
G1 X194.389 Y135.674 E7.13673
G1 X194.965 Y135.968 E7.17055
G1 X195.523 Y136.298 E7.20438
G1 X196.058 Y136.661 E7.23820
G1 X196.576 Y137.064 E7.27248
G1 X197.056 Y137.487 E7.30587
G1 X197.513 Y137.944 E7.33970
G1 X197.942 Y138.430 E7.37352
G1 X198.333 Y138.935 E7.40692
G1 X198.703 Y139.477 E7.44119
G1 X199.032 Y140.035 E7.47501
G1 X199.322 Y140.604 E7.50840
G1 X199.583 Y141.206 E7.54268
G1 X199.802 Y141.815 E7.57649
G1 X199.983 Y142.437 E7.61032
G1 X200.124 Y143.069 E7.64415
G1 X200.226 Y143.708 E7.67798
G1 X200.287 Y144.353 E7.71181
G1 X200.307 Y145.000 E7.74564
G1 X200.287 Y145.647 E7.77947
G1 X200.227 Y146.283 E7.81286
G1 X200.124 Y146.932 E7.84713
G1 X199.983 Y147.563 E7.88095
G1 X199.805 Y148.177 E7.91434
G1 X199.583 Y148.794 E7.94862
G1 X199.326 Y149.389 E7.98243
G1 X199.032 Y149.965 E8.01626
G1 X198.702 Y150.523 E8.05009
G1 X198.339 Y151.058 E8.08392
G1 X197.942 Y151.570 E8.11775
G1 X197.513 Y152.056 E8.15158
G1 X197.056 Y152.513 E8.18540
G1 X196.570 Y152.942 E8.21923
G1 X196.058 Y153.338 E8.25305
G1 X195.516 Y153.707 E8.28733
G1 X194.965 Y154.032 E8.32072
G1 X194.389 Y154.326 E8.35455
G1 X193.794 Y154.583 E8.38837
G1 X193.185 Y154.802 E8.42220
G1 X192.563 Y154.983 E8.45603
G1 X191.931 Y155.124 E8.48986
G1 X191.292 Y155.226 E8.52369
G1 X190.647 Y155.287 E8.55752
G1 X190.000 Y155.307 E8.59135
G1 X189.353 Y155.287 E8.62518
G1 X188.708 Y155.226 E8.65900
G1 X188.069 Y155.124 E8.69283
G1 X187.437 Y154.983 E8.72666
G1 X186.815 Y154.802 E8.76049
G1 X186.206 Y154.583 E8.79432
G1 X185.611 Y154.326 E8.82815
G1 X185.035 Y154.032 E8.86197
G1 X184.477 Y153.702 E8.89580
G1 X183.942 Y153.339 E8.92963
G1 X183.430 Y152.942 E8.96346
G1 X182.944 Y152.513 E8.99729
G1 X182.487 Y152.056 E9.03112
G1 X182.064 Y151.576 E9.06451
G1 X181.661 Y151.058 E9.09879
G1 X181.298 Y150.523 E9.13260
G1 X180.968 Y149.965 E9.16643
G1 X180.674 Y149.389 E9.20026
G1 X180.417 Y148.794 E9.23409
G1 X180.198 Y148.185 E9.26792
G1 X180.017 Y147.563 E9.30175
G1 X179.876 Y146.931 E9.33557
G1 X179.774 Y146.292 E9.36940
G1 X179.713 Y145.647 E9.40323
G1 X179.693 Y145.000 E9.43706
G1 X179.713 Y144.353 E9.47089
G1 X179.773 Y143.717 E9.50428
G1 X179.876 Y143.068 E9.53856
G1 X180.017 Y142.437 E9.57237
G1 X180.198 Y141.815 E9.60620
G1 X180.417 Y141.206 E9.64003
G1 X180.671 Y140.619 E9.67342
G1 X180.968 Y140.034 E9.70770
G1 X181.298 Y139.477 E9.74151
G1 X181.628 Y138.991 E9.77221
G1 X181.263 Y138.652 F5400.000
G1 F1200
G1 X181.679 Y138.116 E9.79235
